; HEADER_BLOCK_START
; generated by ElegooSlicer 1.1.1.0 on 2024-10-15 at 09:50:29
; total layer number: 227
; filament_density: 1.25
; filament_diameter: 1.75
; max_z_height: 45.40
; HEADER_BLOCK_END

; THUMBNAIL_BLOCK_START

;
; THUMBNAIL_BLOCK_END

; external perimeters extrusion width = 0.42mm
; perimeters extrusion width = 0.45mm
; infill extrusion width = 0.45mm
; solid infill extrusion width = 0.42mm
; top infill extrusion width = 0.42mm
; first layer extrusion width = 0.50mm

; EXECUTABLE_BLOCK_START
EXCLUDE_OBJECT_DEFINE NAME=The_Buddha.stl_id_0_copy_0 CENTER=128,128 POLYGON=[[110.963,122.766],[110.965,122.676],[110.965,122.673],[110.97,122.579],[110.97,122.575],[110.97,122.57],[110.978,122.475],[110.986,122.385],[110.998,122.289],[111.011,122.193],[111.017,122.152],[111.025,122.096],[111.043,121.995],[111.054,121.929],[111.06,121.897],[111.081,121.799],[111.106,121.704],[111.137,121.604],[111.181,121.491],[111.226,121.386],[111.279,121.28],[111.328,121.181],[111.331,121.174],[111.391,121.066],[111.832,120.294],[111.841,120.28],[111.903,120.188],[111.908,120.18],[116.124,114.537],[116.194,114.444],[116.266,114.363],[116.771,113.797],[116.846,113.717],[116.92,113.646],[116.998,113.582],[117.077,113.529],[117.956,112.974],[117.984,112.959],[118.038,112.93],[118.117,112.889],[118.2,112.854],[118.285,112.823],[125.577,110.477],[125.663,110.452],[125.753,110.433],[125.843,110.423],[125.936,110.417],[126.944,110.369],[127.037,110.365],[127.131,110.364],[127.225,110.365],[127.319,110.371],[127.416,110.382],[134.467,111.453],[134.564,111.469],[134.66,111.485],[134.758,111.505],[134.855,111.527],[134.955,111.55],[135.053,111.574],[135.153,111.601],[135.251,111.628],[135.352,111.657],[135.454,111.689],[135.555,111.726],[135.661,111.77],[136.616,112.234],[136.706,112.278],[136.723,112.287],[136.815,112.343],[136.914,112.411],[137.002,112.476],[137.066,112.53],[137.087,112.547],[137.091,112.551],[137.166,112.62],[142.045,117.115],[142.118,117.185],[142.189,117.255],[142.721,117.781],[142.78,117.859],[142.822,117.924],[142.87,118.008],[143.332,118.831],[143.375,118.913],[143.407,118.997],[143.462,119.165],[143.489,119.25],[143.518,119.34],[143.542,119.427],[143.543,119.431],[143.563,119.519],[144.999,126.761],[145.001,126.772],[145.016,126.849],[145.028,126.935],[145.035,127.03],[145.037,127.118],[145.037,127.228],[144.994,128.433],[144.99,128.526],[144.978,128.627],[144.958,128.724],[144.93,128.824],[144.896,128.926],[142.326,136.24],[142.312,136.276],[142.288,136.343],[142.257,136.421],[142.247,136.446],[141.358,138.376],[141.31,138.477],[141.254,138.579],[141.25,138.585],[141.187,138.682],[139.749,140.79],[139.689,140.877],[139.619,140.962],[139.565,141.018],[139.546,141.038],[137.951,142.493],[136.242,143.836],[136.164,143.893],[136.085,143.941],[135.917,144.022],[135.832,144.06],[135.75,144.095],[135.664,144.13],[133.388,145.044],[133.303,145.076],[133.217,145.104],[133.045,145.156],[132.958,145.179],[132.869,145.202],[132.782,145.223],[132.694,145.243],[131.41,145.515],[131.319,145.531],[131.23,145.545],[130.96,145.584],[130.869,145.59],[128.28,145.636],[128.186,145.631],[128.092,145.62],[127.184,145.501],[125.565,145.194],[125.486,145.176],[125.466,145.171],[125.269,145.114],[125.065,145.051],[124.981,145.022],[124.963,145.016],[122.997,144.302],[122.893,144.26],[122.831,144.233],[122.788,144.215],[122.707,144.177],[122.683,144.165],[122.585,144.115],[122.579,144.112],[122.574,144.109],[122.468,144.048],[122.467,144.047],[122.37,143.98],[120.401,142.572],[120.311,142.507],[116.815,139.66],[116.736,139.591],[115.77,138.725],[115.766,138.722],[115.709,138.648],[115.58,138.474],[115.419,138.254],[115.364,138.175],[111.596,132.012],[111.553,131.931],[111.516,131.847],[111.481,131.763],[111.451,131.678],[111.425,131.584],[111.424,131.579],[111.145,130.44],[111.123,130.348],[111.09,130.158],[111.076,130.074],[111.064,129.984],[111.056,129.889],[111.051,129.797],[111.05,129.7],[110.964,122.947],[110.963,122.859],[110.963,122.766]]
M106 S0
M106 P2 S0
;TYPE:Custom
;;===== date: 20240520 =====================
;printer_model:Elegoo Centauri Carbon
;initial_filament:PLA
;curr_bed_type:High Temp Plate
M400 ; wait for buffer to clear
M220 S100 ;Set the feed speed to 100%
M221 S100 ;Set the flow rate to 100%
M104 S140
M140 S60
G90
G28 ;home


;=============turn on fans to prevent PLA jamming=================

    
    M106 P3 S255
    ;Prevent PLA from jamming


;enable_pressure_advance:false
;This value is called if pressure advance is enabled

M204 S5000 ;Call exterior wall print acceleration


G1 X128 Y-1.2 F20000
G1 Z0.3 F900
M109 S210
M83
G92 E0 ;Reset Extruder
G1 F6000 
G1 X-1.2 E10.156 ;Draw the first line
G1 Y98.8 E7.934
G1 X-0.5 Y100 E0.1
G1 Y-0.3 E7.934
G1 X78 E6.284
G1 F1680 
G1 X98 E2
G1 F8400 
G1 X118 E2
G1 F1680 
G1 X138 E2
G1 F8400 
G1 X158 E2
G1 F8400 
G1 X178 E2
;End PA test.


G3 I-1 J0 Z0.6 F1200.0 ;Move to side a little
G1 F20000
G92 E0 ;Reset Extruder
;LAYER_COUNT:227
;LAYER:0
G90
G21
M83 ; use relative distances for extrusion
; filament start gcode
M106 P3 S200


;LAYER_CHANGE
;Z:0.2
;HEIGHT:0.2
;BEFORE_LAYER_CHANGE
;0.2
G92 E0

G1 E-.8 F1800
;LAYER:1

;_SET_FAN_SPEED_CHANGING_LAYER
SET_VELOCITY_LIMIT ACCEL=500
EXCLUDE_OBJECT_START NAME=The_Buddha.stl_id_0_copy_0
G1 X122.926 Y114.447 F30000
G1 Z.4
G1 Z.2
G1 E.8 F1800
;TYPE:Inner wall
;WIDTH:0.5
G1 F3000
G1 X123.122 Y114.201 E.01139
G3 X124.791 Y112.761 I2.632 J1.364 E.08156
G2 X125.286 Y112.535 I-2.881 J-6.978 E.01969
G3 X126.313 Y112.38 I1.019 J3.259 E.03766
G3 X126.934 Y112.229 I1.569 J5.095 E.0231
G3 X127.109 Y112.23 I.07 J2.329 E.00633
G3 X127.76 Y112.409 I.008 J1.244 E.02469
G2 X128.555 Y112.624 I1.077 J-2.404 E.02988
G3 X129.257 Y113.262 I-1.171 J1.994 E.03452
G1 X129.491 Y113.579 E.01424
G2 X131.282 Y113.768 I1.019 J-1.073 E.06996
G3 X133.099 Y113.131 I2.531 J4.316 E.06997
G2 X133.883 Y113.148 I.443 J-2.344 E.02847
G3 X134.962 Y113.293 I.286 J1.956 E.03987
G2 X135.776 Y113.719 I1.152 J-1.211 E.03363
G3 X136.566 Y114.586 I-.857 J1.574 E.04317
G2 X136.912 Y114.98 I3.311 J-2.564 E.01894
G3 X136.98 Y115.11 I-.646 J.418 E.00532
G2 X137.674 Y116.781 I15.875 J-5.612 E.06539
G2 X138.595 Y117.454 I1.229 J-.715 E.04241
G3 X139.777 Y117.896 I-.734 J3.773 E.04579
G3 X140.117 Y118.181 I-.667 J1.14 E.01612
G2 X140.664 Y118.522 I1.581 J-1.929 E.02333
G3 X141.217 Y119.091 I-1.402 J1.915 E.02882
G3 X141.5 Y119.561 I-.927 J.878 E.01998
G2 X141.822 Y120.032 I3.871 J-2.305 E.02062
G3 X141.939 Y120.983 I-1.501 J.669 E.03515
G2 X141.956 Y121.607 I30.308 J-.49 E.02253
G1 X141.934 Y121.718 E.0041
G3 X141.675 Y122.275 I-1.539 J-.378 E.02232
G2 X141.121 Y123.334 I4.851 J3.212 E.04327
G2 X141.429 Y124.679 I1.358 J.397 E.05207
G3 X142.369 Y125.912 I-6.263 J5.749 E.05611
G3 X142.486 Y126.488 I-.673 J.437 E.02172
G2 X142.729 Y127.22 I1.632 J-.135 E.02814
G3 X142.765 Y127.784 I-.821 J.335 E.02077
G2 X142.762 Y128.416 I2.192 J.328 E.02292
G3 X142.684 Y128.811 I-1.133 J-.017 E.01463
G2 X142.089 Y129.784 I.88 J1.207 E.04228
G3 X141.606 Y130.226 I-1.686 J-1.358 E.02375
G2 X140.262 Y131.319 I5.556 J8.205 E.06263
G2 X139.977 Y132.252 I.816 J.76 E.03648
G2 X140.219 Y133.361 I24.38 J-4.737 E.04103
G2 X140.337 Y133.935 I41.181 J-8.137 E.02119
G3 X140.069 Y135.043 I-2.076 J.083 E.04169
G3 X139.884 Y135.506 I-22.681 J-8.759 E.01803
G2 X139.393 Y136.239 I1.899 J1.801 E.03202
G3 X139.034 Y136.479 I-.537 J-.417 E.01589
G2 X138.264 Y136.878 I1.117 J3.096 E.03141
G1 X138.23 Y136.893 E.00133
G3 X136.91 Y137.077 I-1.858 J-8.47 E.04822
G2 X136.051 Y137.289 I.707 J4.718 E.03199
G2 X135.292 Y138.067 I.824 J1.563 E.03993
G3 X133.987 Y139.998 I-11.224 J-6.182 E.08431
G3 X131.995 Y140.227 I-1.619 J-5.291 E.07286
G2 X130.923 Y139.943 I-8.763 J30.851 E.04005
G2 X129.78 Y139.567 I-2.582 J5.932 E.04354
G2 X128.068 Y139.962 I-.421 J2.086 E.06544
G3 X126.837 Y140.645 I-2.561 J-3.164 E.05111
G3 X125.166 Y140.903 I-2.338 J-9.583 E.06117
G3 X124.677 Y140.726 I.171 J-1.235 E.01896
G3 X123.285 Y139.463 I3.233 J-4.963 E.06818
G3 X122.796 Y138.893 I2.229 J-2.401 E.0272
G2 X121.625 Y138.269 I-1.383 J1.186 E.04908
G3 X120.484 Y138.05 I.923 J-7.887 E.04199
G3 X119.546 Y137.961 I13.023 J-141.732 E.03406
G3 X118.295 Y137.33 I1.237 J-4.011 E.05086
G3 X117.239 Y136.286 I1.166 J-2.235 E.05446
G3 X116.934 Y135.365 I1.722 J-1.081 E.03539
G2 X116.684 Y133.962 I-8.125 J.721 E.05157
G1 X116.637 Y133.703 E.00952
G3 X116.449 Y133.395 I.641 J-.603 E.01312
G2 X115.363 Y132.672 I-3.12 J3.514 E.04727
G3 X114.786 Y132.251 I1.226 J-2.283 E.02592
G3 X114.04 Y131.7 I4.754 J-7.227 E.03352
G3 X113.696 Y131.251 I1.78 J-1.715 E.02047
G3 X113.182 Y130.533 I7.892 J-6.199 E.03191
G3 X113.266 Y130.261 I.366 J-.035 E.01055
G2 X113.656 Y129.194 I-3.875 J-2.02 E.04117
G2 X113.895 Y128.734 I-7.023 J-3.949 E.01872
G3 X114.113 Y128.11 I4.821 J1.328 E.02392
G3 X114.417 Y127.333 I131.494 J51.054 E.03012
G3 X114.476 Y126.962 I2.278 J.173 E.01362
G2 X114.183 Y125.904 I-3.718 J.462 E.03978
G2 X113.867 Y125.5 I-1.824 J1.101 E.0186
G2 X113.57 Y124.718 I-1.712 J.202 E.03054
G3 X113.326 Y123.032 I5.571 J-1.665 E.06175
G3 X113.286 Y122.319 I2.47 J-.496 E.02589
G3 X113.538 Y121.815 I1.919 J.643 E.02043
G2 X114.578 Y121.312 I-.455 J-2.269 E.04217
G2 X115.01 Y120.742 I-1.772 J-1.793 E.02593
G3 X115.167 Y120.624 I.736 J.812 E.00709
G2 X116.235 Y119.958 I-3.133 J-6.216 E.04555
G2 X116.74 Y118.722 I-1.008 J-1.132 E.04996
G3 X116.912 Y117.249 I5.802 J-.068 E.05372
G1 X117.102 Y116.785 E.0181
G2 X117.687 Y116.179 I-.622 J-1.186 E.03098
G3 X117.932 Y115.622 I2.7 J.854 E.02203
G1 X117.981 Y115.574 E.00247
G2 X118.36 Y115.405 I-14.798 J-33.73 E.015
G2 X118.763 Y114.961 I-2.326 J-2.518 E.02167
G3 X119.883 Y114.688 I1.067 J1.939 E.04214
G3 X120.931 Y114.723 I.447 J2.342 E.0382
G2 X121.905 Y114.893 I1.257 J-4.306 E.0358
G2 X122.902 Y114.481 I-.007 J-1.428 E.03996
G1 X122.903 Y114.48 E.00006
G1 X122.567 Y114.164 F30000
;TYPE:Outer wall
G1 F3000
G1 X122.573 Y114.164 E.00021
G2 X122.746 Y113.94 I-.676 J-.702 E.01025
G3 X124.638 Y112.33 I3.008 J1.618 E.09185
G2 X125.122 Y112.109 I-4.833 J-11.211 E.01924
G3 X126.237 Y111.927 I1.073 J3.078 E.04102
G3 X126.904 Y111.772 I1.501 J4.933 E.02477
G3 X127.138 Y111.773 I.095 J3.111 E.00846
G3 X128.09 Y112.055 I-.125 J2.173 E.03617
G3 X128.725 Y112.199 I-6.095 J28.254 E.02355
G3 X129.623 Y112.988 I-1.146 J2.21 E.04358
G1 X129.829 Y113.267 E.01254
G2 X130.884 Y113.446 I.667 J-.733 E.04086
G3 X132.77 Y112.711 I3.991 J7.453 E.07329
G3 X133.53 Y112.723 I.349 J1.966 E.02762
G3 X134.959 Y112.789 I.568 J3.207 E.0521
G3 X135.413 Y113.074 I-.363 J1.084 E.01956
G2 X135.965 Y113.302 I1.231 J-2.193 E.02163
G3 X136.951 Y114.337 I-1.019 J1.958 E.05258
G2 X137.291 Y114.722 I8.398 J-7.065 E.01856
G3 X137.398 Y114.924 I-.997 J.661 E.00828
G2 X138.067 Y116.548 I16.603 J-5.896 E.06347
G2 X138.724 Y117.016 I.902 J-.571 E.02985
G3 X139.994 Y117.493 I-.844 J4.177 E.04922
G3 X140.42 Y117.838 I-.907 J1.556 E.0199
G2 X140.892 Y118.125 I1.339 J-1.668 E.02
G3 X141.619 Y118.855 I-1.817 J2.538 E.0374
G3 X141.963 Y119.459 I-2.13 J1.615 E.02519
G3 X142.23 Y119.826 I-8.138 J6.194 E.0164
G3 X142.397 Y120.999 I-1.88 J.866 E.04342
G3 X142.41 Y121.666 I-4.129 J.416 E.02411
G3 X142.067 Y122.51 I-2.251 J-.423 E.03315
G2 X141.562 Y123.459 I4.581 J3.047 E.03891
G2 X141.782 Y124.389 I.915 J.274 E.03615
G3 X142.773 Y125.698 I-6.476 J5.93 E.05938
G3 X142.944 Y126.467 I-1.053 J.638 E.02898
G2 X143.137 Y127.013 I1.396 J-.187 E.0211
G3 X143.219 Y127.843 I-1.155 J.533 E.0307
G2 X143.222 Y128.413 I3.042 J.269 E.02062
G3 X143.056 Y129.079 I-1.485 J-.017 E.02503
G3 X142.797 Y129.308 I-1.482 J-1.42 E.0125
G2 X142.513 Y129.963 I1.239 J.926 E.02601
G3 X141.879 Y130.593 I-2.029 J-1.409 E.03246
G2 X140.599 Y131.631 I5.155 J7.665 E.05962
G2 X140.434 Y132.217 I.503 J.459 E.02282
G2 X140.688 Y133.337 I101.146 J-22.365 E.04149
G2 X140.793 Y133.902 I42 J-7.527 E.02077
G3 X140.486 Y135.229 I-2.539 J.112 E.04983
G3 X140.294 Y135.716 I-11.541 J-4.277 E.0189
G2 X139.776 Y136.491 I2.588 J2.291 E.03379
G3 X139.209 Y136.901 I-.914 J-.667 E.0257
G2 X138.526 Y137.257 I.781 J2.329 E.02795
G3 X137.843 Y137.44 I-.906 J-2.02 E.02564
G3 X136.809 Y137.554 I-14.419 J-125.348 E.03757
G2 X136.116 Y137.777 I.374 J2.356 E.02641
G2 X135.688 Y138.295 I1.184 J1.412 E.02442
G3 X134.308 Y140.323 I-11.332 J-6.231 E.08877
G3 X133.719 Y140.546 I-.723 J-1.023 E.023
G3 X131.915 Y140.678 I-1.403 J-6.799 E.06552
G2 X130.955 Y140.426 I-6.761 J23.887 E.03587
G3 X130.059 Y140.105 I1.957 J-6.854 E.03439
G2 X128.321 Y140.342 I-.653 J1.7 E.06612
G3 X126.883 Y141.104 I-2.644 J-3.254 E.05918
G3 X125.765 Y141.317 I-2.57 J-10.434 E.04115
G3 X124.711 Y141.259 I-.415 J-2.033 E.03855
G3 X124.045 Y140.844 I1.227 J-2.715 E.02842
G3 X122.956 Y139.782 I3.999 J-5.186 E.05508
G3 X122.448 Y139.189 I2.427 J-2.598 E.02828
G2 X121.551 Y138.72 I-1.036 J.889 E.03745
G3 X120.405 Y138.5 I.933 J-7.959 E.0422
G3 X119.44 Y138.406 I2.43 J-29.748 E.03504
G3 X118.035 Y137.706 I1.348 J-4.471 E.05698
G3 X117.252 Y137.088 I1.42 J-2.603 E.0362
G3 X116.578 Y135.925 I2.571 J-2.266 E.04888
G3 X116.392 Y134.715 I11.323 J-2.364 E.04427
G2 X116.207 Y133.892 I-57.022 J12.384 E.03046
G3 X116.078 Y133.678 I.446 J-.416 E.00909
G2 X115.131 Y133.066 I-2.708 J3.151 E.04087
G3 X114.503 Y132.611 I1.456 J-2.669 E.02807
G3 X113.719 Y132.026 I4.724 J-7.148 E.03535
G3 X113.324 Y131.516 I2.103 J-2.038 E.02336
G3 X112.738 Y130.662 I4.134 J-3.464 E.03747
G3 X112.92 Y129.94 I.973 J-.14 E.02762
G2 X113.238 Y129.009 I-7.34 J-3.024 E.03556
G2 X113.462 Y128.582 I-14.598 J-7.945 E.01744
G3 X113.685 Y127.948 I4.847 J1.35 E.0243
G3 X113.97 Y127.224 I70.782 J27.392 E.02809
G3 X114.01 Y126.958 I1.626 J.113 E.00971
G2 X113.784 Y126.131 I-3.046 J.387 E.0311
G2 X113.445 Y125.688 I-37.954 J28.752 E.02014
G2 X113.343 Y125.261 I-7.43 J1.545 E.01588
G3 X113.032 Y124.466 I1.691 J-1.121 E.03107
G3 X112.871 Y123.075 I5.315 J-1.32 E.05072
G3 X112.847 Y122.188 I2.549 J-.512 E.03222
G3 X113.297 Y121.431 I1.521 J.391 E.03225
G3 X113.724 Y121.283 I.7 J1.331 E.01638
G2 X114.604 Y120.517 I-.455 J-1.412 E.04331
G3 X114.932 Y120.232 I.863 J.659 E.01583
G2 X115.941 Y119.606 I-2.894 J-5.792 E.04294
G2 X116.283 Y118.707 I-.741 J-.797 E.036
G3 X116.484 Y117.087 I5.955 J-.082 E.05915
G1 X116.684 Y116.6 E.01904
G3 X117.031 Y116.294 I.582 J.312 E.01707
G2 X117.39 Y115.68 I-.828 J-.895 E.02607
G3 X117.966 Y115.087 I.809 J.21 E.03125
G2 X118.369 Y114.718 I-.402 J-.844 E.02003
G3 X118.781 Y114.435 I.723 J.608 E.01829
G3 X119.836 Y114.233 I1.132 J3.06 E.03899
G3 X121.033 Y114.277 I.497 J2.767 E.04359
G2 X121.9 Y114.436 I1.175 J-3.96 E.03192
G2 X122.441 Y114.27 I-.003 J-.975 E.02073
G1 X122.537 Y114.19 E.00453
G1 E-.728 F1800
;WIPE_START
G1 F30000
G1 X122.573 Y114.164 E-.00268
G1 X122.746 Y113.94 E-.01696
G1 X122.962 Y113.599 E-.02425
G1 X123.135 Y113.373 E-.01705
G1 X123.264 Y113.241 E-.01106
;WIPE_END
G1 X130.896 Y113.326 Z.6
G1 X134.287 Y113.364 Z.6
G1 Z.2
G1 E.8 F1800
;TYPE:Bottom surface
;WIDTH:0.500959
G1 F6300
G1 X137.2 Y116.277 E.14913
G1 E-.728 F1800
;WIPE_START
G1 F30000
G1 X136.351 Y115.428 E-.072
;WIPE_END
G1 X138.613 Y117.689 Z.6
G1 Z.2
G1 E.8 F1800
G1 F6300
G1 X141.528 Y120.605 E.14927
G2 X141.515 Y121.24 I3.095 J.381 E.02303
G1 X133.867 Y113.591 E.3916
G3 X133.21 Y113.582 I-.305 J-1.661 E.02394
G1 X141.442 Y121.814 E.42151
G1 X141.204 Y122.224 E.01716
G1 X132.648 Y113.668 E.43809
G1 X132.164 Y113.832 E.01848
G1 X140.964 Y122.632 E.45054
G2 X140.755 Y123.071 I1.684 J1.07 E.01764
G1 X131.712 Y114.027 E.46303
G1 X131.28 Y114.244 E.01747
G1 X140.639 Y123.602 E.47918
G2 X140.725 Y124.336 I1.941 J.144 E.02691
G1 X130.782 Y114.393 E.50908
G3 X130.118 Y114.377 I-.295 J-1.519 E.02424
G1 X142.052 Y126.311 E.61104
G2 X142.175 Y127.082 I1.943 J.085 E.02845
G1 X128.057 Y112.964 E.72285
G1 X127.789 Y112.897 E.00999
G1 X127.373 Y112.708 E.01657
G1 X127.115 Y112.67 E.00942
G1 X142.331 Y127.885 E.77905
G2 X142.309 Y128.511 I21.84 J1.073 E.02268
G1 X126.56 Y112.763 E.80635
G1 X126.384 Y112.811 E.00663
G1 X125.985 Y112.835 E.01447
G1 X142.018 Y128.868 E.82092
G2 X141.786 Y129.284 I1.26 J.974 E.01731
