; HEADER_BLOCK_START
; generated by ElegooSlicer 1.1.1.0 on 2024-10-15 at 09:48:37
; total layer number: 536
; filament_density: 1.25
; filament_diameter: 1.75
; max_z_height: 107.20
; HEADER_BLOCK_END

; THUMBNAIL_BLOCK_START

;
; THUMBNAIL_BLOCK_END

; external perimeters extrusion width = 0.42mm
; perimeters extrusion width = 0.45mm
; infill extrusion width = 0.45mm
; solid infill extrusion width = 0.42mm
; top infill extrusion width = 0.42mm
; first layer extrusion width = 0.50mm

; EXECUTABLE_BLOCK_START
EXCLUDE_OBJECT_DEFINE NAME=CC_MINI.stl_id_0_copy_0 CENTER=128,128 POLYGON=[[87.5,101.805],[88,97.2763],[92,93.2763],[138.407,82.7578],[138.56,82.7323],[138.719,82.7289],[139.049,82.7237],[158.158,82.7237],[158.487,82.7289],[158.648,82.7325],[158.801,82.7582],[158.942,82.7999],[158.966,82.8086],[159.097,82.8683],[160.053,83.396],[160.159,83.4677],[160.189,83.4914],[160.271,83.5768],[160.296,83.611],[168,97.2763],[168.5,101.805],[168.5,164.748],[168,169.276],[164,173.276],[92,173.276],[88,169.276],[87.5,164.748],[87.5,101.805]]
M106 S0
M106 P2 S0
;TYPE:Custom
;;===== date: 20240520 =====================
;printer_model:Elegoo Centauri Carbon
;initial_filament:PLA
;curr_bed_type:High Temp Plate
M400 ; wait for buffer to clear
M220 S100 ;Set the feed speed to 100%
M221 S100 ;Set the flow rate to 100%
M104 S140
M140 S60
G90
G28 ;home


;=============turn on fans to prevent PLA jamming=================

    
    M106 P3 S255
    ;Prevent PLA from jamming


;enable_pressure_advance:false
;This value is called if pressure advance is enabled

M204 S5000 ;Call exterior wall print acceleration


G1 X128 Y-1.2 F20000
G1 Z0.3 F900
M109 S210
M83
G92 E0 ;Reset Extruder
G1 F6000 
G1 X-1.2 E10.156 ;Draw the first line
G1 Y98.8 E7.934
G1 X-0.5 Y100 E0.1
G1 Y-0.3 E7.934
G1 X78 E6.284
G1 F1680 
G1 X98 E2
G1 F8400 
G1 X118 E2
G1 F1680 
G1 X138 E2
G1 F8400 
G1 X158 E2
G1 F8400 
G1 X178 E2
;End PA test.


G3 I-1 J0 Z0.6 F1200.0 ;Move to side a little
G1 F20000
G92 E0 ;Reset Extruder
;LAYER_COUNT:536
;LAYER:0
G90
G21
M83 ; use relative distances for extrusion
; filament start gcode
M106 P3 S200


;LAYER_CHANGE
;Z:0.2
;HEIGHT:0.2
;BEFORE_LAYER_CHANGE
;0.2
G92 E0

G1 E-.8 F1800
;LAYER:1

;_SET_FAN_SPEED_CHANGING_LAYER
SET_VELOCITY_LIMIT ACCEL=500
EXCLUDE_OBJECT_START NAME=CC_MINI.stl_id_0_copy_0
G1 X139.526 Y94.083 F30000
G1 Z.4
G1 Z.2
G1 E.8 F1800
;TYPE:Inner wall
;WIDTH:0.5
G1 F3000
G1 X139.526 Y86.557 E.27193
G2 X139.483 Y85.408 I-12.157 J-.122 E.04156
G1 X139.646 Y85.425 E.00591
G2 X141.684 Y85.474 I1.549 J-21.862 E.07368
G1 X156.518 Y85.473 E.53595
G2 X157.723 Y85.408 I-.119 J-13.422 E.04361
G2 X157.68 Y86.557 I12.113 J1.027 E.04156
G1 X157.68 Y94.083 E.27193
G1 X163.666 Y94.083 E.21626
G1 X167.193 Y97.611 E.18022
G1 X167.193 Y168.942 E2.57712
G1 X163.666 Y172.469 E.18022
G1 X92.334 Y172.469 E2.57712
G1 X88.807 Y168.942 E.18022
G1 X88.807 Y97.611 E2.57712
G1 X92.334 Y94.083 E.18022
G1 X139.486 Y94.083 E1.70355
G1 X139.069 Y93.626 F30000
;TYPE:Outer wall
G1 F3000
G1 X139.069 Y86.559 E.25533
G2 X138.943 Y84.917 I-9.16 J-.125 E.05956
G3 X139.686 Y84.97 I.128 J3.471 E.02694
G2 X141.684 Y85.017 I1.511 J-21.436 E.07225
G1 X156.513 Y85.015 E.53575
G2 X158.006 Y84.917 I-.129 J-13.382 E.05409
G1 X158.263 Y84.917 E.00928
G1 X158.171 Y85.576 E.02404
G2 X158.137 Y86.559 I10.36 J.849 E.03553
G1 X158.137 Y93.626 E.25533
G1 X163.855 Y93.626 E.20658
G1 X167.65 Y97.421 E.1939
G1 X167.65 Y169.131 E2.5908
G1 X163.855 Y172.926 E.1939
G1 X92.145 Y172.926 E2.5908
G1 X88.35 Y169.131 E.1939
G1 X88.35 Y97.421 E2.5908
G1 X92.145 Y93.626 E.1939
G1 X139.029 Y93.626 E1.69387
G1 E-.728 F1800
;WIPE_START
G1 F30000
G1 X139.036 Y92.426 E-.072
;WIPE_END
G1 X146.307 Y90.107 Z.6
G1 X157.452 Y86.551 Z.6
G1 Z.2
G1 E.8 F1800
;TYPE:Bottom surface
;WIDTH:0.501383
G1 F6300
G1 X156.801 Y85.9 E.03335
G3 X156.159 Y85.907 I-.46 J-14.018 E.02327
G1 X157.246 Y86.994 E.0557
G1 X157.246 Y87.642 E.02349
G1 X155.511 Y85.907 E.08893
G1 X154.862 Y85.907 E.0235
G1 X157.246 Y88.29 E.12216
G1 X157.246 Y88.939 E.02349
G1 X154.214 Y85.907 E.15538
G1 X153.566 Y85.907 E.0235
G1 X157.246 Y89.587 E.18861
G1 X157.246 Y90.235 E.02349
G1 X152.917 Y85.907 E.22183
G1 X152.269 Y85.907 E.0235
G1 X157.246 Y90.884 E.25506
G1 X157.246 Y91.532 E.02349
G1 X151.621 Y85.907 E.28829
G1 X150.972 Y85.907 E.0235
G1 X157.246 Y92.18 E.32151
G1 X157.246 Y92.829 E.02349
G1 X150.324 Y85.907 E.35474
G1 X149.675 Y85.907 E.0235
G1 X157.451 Y93.683 E.39851
G1 E-.728 F1800
;WIPE_START
G1 F30000
G1 X156.603 Y92.834 E-.072
;WIPE_END
G1 X163.268 Y94.312 Z.6
G1 Z.2
G1 E.8 F1800
G1 F6300
G1 X166.759 Y97.803 E.17891
G1 X166.759 Y98.451 E.0235
G1 X162.825 Y94.518 E.2016
G1 X162.177 Y94.518 E.0235
G1 X166.759 Y99.1 E.23483
G1 X166.759 Y99.748 E.0235
G1 X161.528 Y94.518 E.26806
G1 X160.88 Y94.518 E.0235
G1 X166.759 Y100.397 E.30128
G1 X166.759 Y101.045 E.0235
G1 X160.231 Y94.518 E.33451
G1 X159.583 Y94.518 E.0235
G1 X166.759 Y101.693 E.36774
G1 X166.759 Y102.342 E.0235
G1 X158.935 Y94.518 E.40097
G1 X158.286 Y94.518 E.0235
G1 X166.759 Y102.99 E.4342
G1 X166.759 Y103.638 E.0235
G1 X149.027 Y85.907 E.90872
G1 X148.379 Y85.907 E.0235
G1 X166.759 Y104.287 E.94195
G1 X166.759 Y104.935 E.0235
G1 X147.73 Y85.907 E.97517
G1 X147.082 Y85.907 E.0235
G1 X166.759 Y105.583 E1.0084
G1 X166.759 Y106.232 E.0235
G1 X146.434 Y85.907 E1.04163
G1 X145.785 Y85.907 E.0235
G1 X166.759 Y106.88 E1.07486
G1 X166.759 Y107.529 E.0235
G1 X145.137 Y85.907 E1.10808
G1 X144.489 Y85.907 E.0235
G1 X166.759 Y108.177 E1.14131
G1 X166.759 Y108.825 E.0235
G1 X143.84 Y85.907 E1.17454
G1 X143.192 Y85.907 E.0235
G1 X166.759 Y109.474 E1.20777
G1 X166.759 Y110.122 E.0235
G1 X142.543 Y85.907 E1.241
G1 X141.895 Y85.907 E.0235
G1 X166.759 Y110.77 E1.27422
G1 X166.759 Y111.419 E.0235
G1 X141.247 Y85.907 E1.30745
G3 X140.595 Y85.903 I-.285 J-7.181 E.02364
G1 X166.759 Y112.067 E1.34087
G1 X166.759 Y112.715 E.0235
G1 X139.947 Y85.903 E1.37407
G3 X139.96 Y86.565 I-19.451 J.725 E.02399
G1 X166.759 Y113.364 E1.37338
G1 X166.759 Y114.012 E.0235
G1 X139.96 Y87.214 E1.37338
G1 X139.96 Y87.862 E.0235
G1 X166.759 Y114.661 E1.37338
G1 X166.759 Y115.309 E.0235
G1 X139.96 Y88.51 E1.37338
G1 X139.96 Y89.159 E.0235
G1 X166.759 Y115.957 E1.37338
G1 X166.759 Y116.606 E.0235
G1 X139.96 Y89.807 E1.37338
G1 X139.96 Y90.456 E.0235
G1 X166.759 Y117.254 E1.37337
G1 X166.759 Y117.902 E.0235
G1 X139.96 Y91.104 E1.37337
G1 X139.96 Y91.752 E.0235
G1 X166.759 Y118.551 E1.37337
G1 X166.759 Y119.199 E.0235
G1 X139.96 Y92.401 E1.37337
G1 X139.96 Y93.049 E.0235
G1 X166.759 Y119.847 E1.37337
G1 X166.759 Y120.496 E.0235
G1 X139.961 Y93.698 E1.37337
G1 X139.961 Y94.346 E.0235
G1 X166.759 Y121.144 E1.37337
G1 X166.759 Y121.793 E.0235
G1 X139.484 Y94.518 E1.3978
G1 X138.835 Y94.518 E.0235
G1 X166.759 Y122.441 E1.43103
G1 X166.759 Y123.089 E.0235
G1 X138.187 Y94.518 E1.46425
G1 X137.539 Y94.518 E.0235
G1 X166.759 Y123.738 E1.49748
G1 X166.759 Y124.386 E.0235
G1 X136.89 Y94.518 E1.53071
G1 X136.242 Y94.518 E.0235
G1 X166.759 Y125.034 E1.56394
G1 X166.759 Y125.683 E.0235
G1 X135.594 Y94.518 E1.59716
G1 X134.945 Y94.518 E.0235
G1 X166.759 Y126.331 E1.63039
G1 X166.759 Y126.979 E.0235
G1 X134.297 Y94.518 E1.66362
G1 X133.648 Y94.518 E.0235
G1 X166.759 Y127.628 E1.69685
G1 X166.759 Y128.276 E.0235
G1 X133 Y94.518 E1.73008
G1 X132.352 Y94.518 E.0235
G1 X166.759 Y128.925 E1.7633
G1 X166.759 Y129.573 E.0235
G1 X131.703 Y94.518 E1.79653
G1 X131.055 Y94.518 E.0235
G1 X166.759 Y130.221 E1.82976
G1 X166.759 Y130.87 E.0235
G1 X130.407 Y94.518 E1.86299
G1 X129.758 Y94.518 E.0235
G1 X166.759 Y131.518 E1.89621
G1 X166.759 Y132.166 E.0235
G1 X129.11 Y94.518 E1.92944
G1 X128.462 Y94.518 E.0235
G1 X166.759 Y132.815 E1.96267
G1 X166.759 Y133.463 E.0235
G1 X127.813 Y94.518 E1.9959
G1 X127.165 Y94.518 E.0235
G1 X166.759 Y134.111 E2.02913
G1 X166.759 Y134.76 E.0235
G1 X126.516 Y94.518 E2.06235
G1 X125.868 Y94.518 E.0235
G1 X166.759 Y135.408 E2.09558
G1 X166.759 Y136.057 E.0235
G1 X125.22 Y94.518 E2.12881
G1 X124.571 Y94.518 E.0235
G1 X166.759 Y136.705 E2.16204
G1 X166.759 Y137.353 E.0235
G1 X123.923 Y94.518 E2.19526
G1 X123.275 Y94.518 E.0235
G1 X166.759 Y138.002 E2.22849
G1 X166.759 Y138.65 E.0235
G1 X122.626 Y94.518 E2.26172
G1 X121.978 Y94.518 E.0235
G1 X166.759 Y139.298 E2.29495
G1 X166.759 Y139.947 E.0235
G1 X121.33 Y94.518 E2.32817
G1 X120.681 Y94.518 E.0235
G1 X166.759 Y140.595 E2.3614
G1 X166.759 Y141.243 E.0235
G1 X120.033 Y94.518 E2.39463
G1 X119.384 Y94.518 E.0235
G1 X166.759 Y141.892 E2.42786
G1 X166.759 Y142.54 E.0235
G1 X118.736 Y94.518 E2.46109
G1 X118.088 Y94.518 E.0235
G1 X166.759 Y143.189 E2.49431
G1 X166.759 Y143.837 E.0235
G1 X117.439 Y94.518 E2.52754
G1 X116.791 Y94.518 E.0235
G1 X166.759 Y144.485 E2.56077
G1 X166.759 Y145.134 E.0235
G1 X116.143 Y94.518 E2.594
G1 X115.494 Y94.518 E.0235
G1 X166.759 Y145.782 E2.62722
G1 X166.759 Y146.43 E.0235
G1 X114.846 Y94.518 E2.66045
G1 X114.198 Y94.518 E.0235
G1 X166.759 Y147.079 E2.69368
G1 X166.759 Y147.727 E.0235
G1 X113.549 Y94.518 E2.72691
G1 X112.901 Y94.518 E.0235
G1 X166.759 Y148.375 E2.76013
G1 X166.759 Y149.024 E.0235
G1 X112.252 Y94.518 E2.79336
G1 X111.604 Y94.518 E.0235
G1 X166.759 Y149.672 E2.82659
G1 X166.759 Y150.321 E.0235
G1 X110.956 Y94.518 E2.85982
G1 X110.307 Y94.518 E.0235
G1 X166.759 Y150.969 E2.89305
G1 X166.759 Y151.617 E.0235
G1 X109.659 Y94.518 E2.92627
G1 X109.011 Y94.518 E.0235
G1 X166.759 Y152.266 E2.9595
G1 X166.759 Y152.914 E.0235
G1 X108.362 Y94.518 E2.99273
G1 X107.714 Y94.518 E.0235
G1 X166.759 Y153.562 E3.02596
G1 X166.759 Y154.211 E.0235
G1 X107.066 Y94.518 E3.05918
G1 X106.417 Y94.518 E.0235
G1 X166.759 Y154.859 E3.09241
G1 X166.759 Y155.507 E.0235
G1 X105.769 Y94.518 E3.12564
G1 X105.12 Y94.518 E.0235
G1 X166.759 Y156.156 E3.15887
G1 X166.759 Y156.804 E.0235
G1 X104.472 Y94.518 E3.1921
G1 X103.824 Y94.518 E.0235
G1 X166.759 Y157.453 E3.22532
G1 X166.759 Y158.101 E.0235
G1 X103.175 Y94.518 E3.25855
G1 X102.527 Y94.518 E.0235
G1 X166.759 Y158.749 E3.29178
G1 X166.759 Y159.398 E.0235
G1 X101.879 Y94.518 E3.32501
G1 X101.23 Y94.518 E.0235
G1 X166.759 Y160.046 E3.35823
G1 X166.759 Y160.694 E.0235
G1 X100.582 Y94.518 E3.39146
G1 X99.934 Y94.518 E.0235
G1 X166.759 Y161.343 E3.42469
G1 X166.759 Y161.991 E.0235
G1 X99.285 Y94.518 E3.45792
G1 X98.637 Y94.518 E.0235
G1 X166.759 Y162.64 E3.49114
G1 X166.759 Y163.288 E.0235
G1 X97.988 Y94.518 E3.52437
G1 X97.34 Y94.518 E.0235
G1 X166.759 Y163.936 E3.5576
G1 X166.759 Y164.585 E.0235
G1 X96.692 Y94.518 E3.59083
G1 X96.043 Y94.518 E.0235
G1 X166.759 Y165.233 E3.62406
G1 X166.759 Y165.881 E.0235
G1 X95.395 Y94.518 E3.65728
G1 X94.747 Y94.518 E.0235
G1 X166.759 Y166.53 E3.69051
G1 X166.759 Y167.178 E.0235
G1 X94.098 Y94.518 E3.72374
G1 X93.45 Y94.518 E.0235
G1 X166.759 Y167.826 E3.75697
G1 X166.759 Y168.475 E.0235
G1 X92.802 Y94.518 E3.79019
G1 X92.514 Y94.518 E.01041
G1 X92.334 Y94.698 E.00925
G1 X166.578 Y168.943 E3.80492
G1 X166.254 Y169.267 E.01661
G1 X92.009 Y95.022 E3.80492
G1 X91.685 Y95.346 E.01661
G1 X165.93 Y169.591 E3.80492
G1 X165.606 Y169.915 E.01661
G1 X91.361 Y95.671 E3.80492
G1 X91.037 Y95.995 E.01661
G1 X165.281 Y170.239 E3.80492
G1 X164.957 Y170.564 E.01661
G1 X90.713 Y96.319 E3.80492
G1 X90.389 Y96.643 E.01661
G1 X164.633 Y170.888 E3.80492
G1 X164.309 Y171.212 E.01661
G1 X90.064 Y96.967 E3.80492
G1 X89.74 Y97.292 E.01661
G1 X163.985 Y171.536 E3.80492
G1 X163.661 Y171.86 E.01661
G1 X89.416 Y97.616 E3.80492
G1 X89.241 Y97.79 E.00895
G1 X89.241 Y98.089 E.01083
G1 X163.187 Y172.035 E3.7896
G1 X162.539 Y172.035 E.0235
G1 X89.241 Y98.738 E3.75637
G1 X89.241 Y99.386 E.0235
G1 X161.89 Y172.035 E3.72315
G1 X161.242 Y172.035 E.0235
G1 X89.241 Y100.034 E3.68992
G1 X89.241 Y100.683 E.0235
G1 X160.593 Y172.035 E3.65669
G1 X159.945 Y172.035 E.0235
G1 X89.241 Y101.331 E3.62346
G1 X89.241 Y101.98 E.0235
G1 X159.297 Y172.035 E3.59024
G1 X158.648 Y172.035 E.0235
G1 X89.241 Y102.628 E3.55701
G1 X89.241 Y103.276 E.0235
G1 X158 Y172.035 E3.52378
G1 X157.352 Y172.035 E.0235
G1 X89.241 Y103.925 E3.49055
G1 X89.241 Y104.573 E.0235
G1 X156.703 Y172.035 E3.45733
G1 X156.055 Y172.035 E.0235
G1 X89.241 Y105.221 E3.4241
G1 X89.241 Y105.87 E.0235
G1 X155.407 Y172.035 E3.39087
G1 X154.758 Y172.035 E.0235
G1 X89.241 Y106.518 E3.35764
G1 X89.241 Y107.167 E.0235
G1 X154.11 Y172.035 E3.32441
G1 X153.461 Y172.035 E.0235
G1 X89.241 Y107.815 E3.29119
G1 X89.241 Y108.463 E.0235
G1 X152.813 Y172.035 E3.25796
G1 X152.165 Y172.035 E.0235
G1 X89.241 Y109.112 E3.22473
G1 X89.241 Y109.76 E.0235
G1 X151.516 Y172.035 E3.1915
G1 X150.868 Y172.035 E.0235
G1 X89.241 Y110.408 E3.15828
G1 X89.241 Y111.057 E.0235
G1 X150.22 Y172.035 E3.12505
G1 X149.571 Y172.035 E.0235
G1 X89.241 Y111.705 E3.09182
G1 X89.241 Y112.353 E.0235
G1 X148.923 Y172.035 E3.05859
G1 X148.275 Y172.035 E.0235
G1 X89.241 Y113.002 E3.02536
G1 X89.241 Y113.65 E.0235
G1 X147.626 Y172.035 E2.99214
G1 X146.978 Y172.035 E.0235
G1 X89.241 Y114.299 E2.95891
G1 X89.241 Y114.947 E.0235
G1 X146.329 Y172.035 E2.92568
G1 X145.681 Y172.035 E.0235
G1 X89.241 Y115.595 E2.89245
G1 X89.241 Y116.244 E.0235
G1 X145.033 Y172.035 E2.85923
G1 X144.384 Y172.035 E.0235
G1 X89.241 Y116.892 E2.826
G1 X89.241 Y117.54 E.0235
G1 X143.736 Y172.035 E2.79277
G1 X143.088 Y172.035 E.0235
G1 X89.241 Y118.189 E2.75954
G1 X89.241 Y118.837 E.0235
G1 X142.439 Y172.035 E2.72632
G1 X141.791 Y172.035 E.0235
G1 X89.241 Y119.485 E2.69309
G1 X89.241 Y120.134 E.0235
G1 X141.143 Y172.035 E2.65986
G1 X140.494 Y172.035 E.0235
G1 X89.241 Y120.782 E2.62663
G1 X89.241 Y121.431 E.0235
G1 X139.846 Y172.035 E2.5934
G1 X139.197 Y172.035 E.0235
G1 X89.241 Y122.079 E2.56018
G1 X89.241 Y122.727 E.0235
G1 X138.549 Y172.035 E2.52695
G1 X137.901 Y172.035 E.0235
G1 X89.241 Y123.376 E2.49372
G1 X89.241 Y124.024 E.0235
G1 X137.252 Y172.035 E2.46049
G1 X136.604 Y172.035 E.0235
G1 X89.241 Y124.672 E2.42727
G1 X89.241 Y125.321 E.0235
G1 X135.956 Y172.035 E2.39404
G1 X135.307 Y172.035 E.0235
G1 X89.241 Y125.969 E2.36081
G1 X89.241 Y126.617 E.0235
G1 X134.659 Y172.035 E2.32758
G1 X134.011 Y172.035 E.0235
G1 X89.241 Y127.266 E2.29436
G1 X89.241 Y127.914 E.0235
G1 X133.362 Y172.035 E2.26113
G1 X132.714 Y172.035 E.0235
G1 X89.241 Y128.563 E2.2279
G1 X89.241 Y129.211 E.0235
G1 X132.065 Y172.035 E2.19467
G1 X131.417 Y172.035 E.0235
G1 X89.241 Y129.859 E2.16144
G1 X89.241 Y130.508 E.0235
G1 X130.769 Y172.035 E2.12822
G1 X130.12 Y172.035 E.0235
G1 X89.241 Y131.156 E2.09499
G1 X89.241 Y131.804 E.0235
G1 X129.472 Y172.035 E2.06176
G1 X128.824 Y172.035 E.0235
G1 X89.241 Y132.453 E2.02853
G1 X89.241 Y133.101 E.0235
G1 X128.175 Y172.035 E1.99531
G1 X127.527 Y172.035 E.0235
G1 X89.241 Y133.749 E1.96208
G1 X89.241 Y134.398 E.0235
G1 X126.879 Y172.035 E1.92885
G1 X126.23 Y172.035 E.0235
G1 X89.241 Y135.046 E1.89562
G1 X89.241 Y135.695 E.0235
G1 X125.582 Y172.035 E1.8624
G1 X124.933 Y172.035 E.0235
G1 X89.241 Y136.343 E1.82917
G1 X89.241 Y136.991 E.0235
G1 X124.285 Y172.035 E1.79594
G1 X123.637 Y172.035 E.0235
G1 X89.241 Y137.64 E1.76271
G1 X89.241 Y138.288 E.0235
G1 X122.988 Y172.035 E1.72948
G1 X122.34 Y172.035 E.0235
G1 X89.241 Y138.936 E1.69626
G1 X89.241 Y139.585 E.0235
G1 X121.692 Y172.035 E1.66303
G1 X121.043 Y172.035 E.0235
G1 X89.241 Y140.233 E1.6298
G1 X89.241 Y140.881 E.0235
G1 X120.395 Y172.035 E1.59657
G1 X119.746 Y172.035 E.0235
G1 X89.241 Y141.53 E1.56335
G1 X89.241 Y142.178 E.0235
G1 X119.098 Y172.035 E1.53012
G1 X118.45 Y172.035 E.0235
G1 X89.241 Y142.827 E1.49689
G1 X89.241 Y143.475 E.0235
G1 X117.801 Y172.035 E1.46366
G1 X117.153 Y172.035 E.0235
G1 X89.241 Y144.123 E1.43043
G1 X89.241 Y144.772 E.0235
G1 X116.505 Y172.035 E1.39721
G1 X115.856 Y172.035 E.0235
G1 X89.241 Y145.42 E1.36398
G1 X89.241 Y146.068 E.0235
G1 X115.208 Y172.035 E1.33075
G1 X114.56 Y172.035 E.0235
G1 X89.241 Y146.717 E1.29752
G1 X89.241 Y147.365 E.0235
G1 X113.911 Y172.035 E1.2643
G1 X113.263 Y172.035 E.0235
G1 X89.241 Y148.013 E1.23107
G1 X89.241 Y148.662 E.0235
G1 X112.614 Y172.035 E1.19784
G1 X111.966 Y172.035 E.0235
G1 X89.241 Y149.31 E1.16461
G1 X89.241 Y149.959 E.0235
G1 X111.318 Y172.035 E1.13139
G1 X110.669 Y172.035 E.0235
