; HEADER_BLOCK_START
; generated by ElegooSlicer 1.1.6.1 on 2025-01-14 at 18:21:00
; total layer number: 65
; filament_density: 1.25
; filament_diameter: 1.75
; max_z_height: 15.54
; HEADER_BLOCK_END

; THUMBNAIL_BLOCK_START

;
; THUMBNAIL_BLOCK_END

; external perimeters extrusion width = 0.42mm
; perimeters extrusion width = 0.45mm
; infill extrusion width = 0.45mm
; solid infill extrusion width = 0.42mm
; top infill extrusion width = 0.42mm
; first layer extrusion width = 0.50mm

; EXECUTABLE_BLOCK_START
EXCLUDE_OBJECT_DEFINE NAME=CC_Cover_Holder.stl_id_0_copy_0 CENTER=128.5,128.5 POLYGON=[[67.5,20.5],[68.6765,19.3235],[69.5,18.5],[187.5,18.5],[187.618,18.6176],[189.5,20.5],[189.5,236.5],[189.326,236.674],[189.236,236.764],[187.853,238.147],[187.5,238.5],[69.5,238.5],[68.6765,237.676],[68.0882,237.088],[67.5,236.5],[67.5,20.5]]
M106 S0
M106 P2 S0
;TYPE:Custom
;;===== date: 20240520 =====================
;printer_model:Elegoo Centauri Carbon
;initial_filament:PLA
;curr_bed_type:Textured PEI Plate
M400 ; wait for buffer to clear
M220 S100 ;Set the feed speed to 100%
M221 S100 ;Set the flow rate to 100%
M104 S140
M140 S60
G90
G28 ;home
M729 ;Clean Nozzle


;=============turn on fans to prevent PLA jamming=================

    
    M106 P3 S255
    ;Prevent PLA from jamming


;enable_pressure_advance:false
;This value is called if pressure advance is enabled

M204 S5000 ;Call exterior wall print acceleration


G1 X128.5 Y-1.2 F20000
G1 Z0.3 F900
M109 S210
M83
G92 E0 ;Reset Extruder
G1 F6000 
G1 X-1.2 E10.156 ;Draw the first line
G1 Y98.8 E7.934
G1 X-0.5 Y100 E0.1
G1 Y-0.3 E7.934
G1 X78.5 E6.284
G1 F1680 
G1 X98.5 E2
G1 F8400 
G1 X118.5 E2
G1 F1680 
G1 X138.5 E2
G1 F8400 
G1 X158.5 E2
G1 F8400 
G1 X178.5 E2
;End PA test.


G3 I-1 J0 Z0.6 F1200.0 ;Move to side a little
G1 F20000
G92 E0 ;Reset Extruder
;LAYER_COUNT:65
;LAYER:0
G90
G21
M83 ; use relative distances for extrusion
; filament start gcode
M106 P3 S200


;LAYER_CHANGE
;Z:0.2
;HEIGHT:0.2
;BEFORE_LAYER_CHANGE
;0.2
G92 E0

G1 E-.8 F1800
;LAYER:1

;_SET_FAN_SPEED_CHANGING_LAYER
SET_VELOCITY_LIMIT ACCEL=500
EXCLUDE_OBJECT_START NAME=CC_Cover_Holder.stl_id_0_copy_0
G1 X168.685 Y200.471 F30000
G1 Z.6
G1 Z.2
G1 E.8 F1800
;TYPE:Inner wall
;WIDTH:0.5
G1 F3000
G1 X168.998 Y200.439 E.01134
G1 X169.493 Y200.487 E.018
G1 X169.968 Y200.629 E.01791
G1 X170.407 Y200.86 E.01791
G1 X170.793 Y201.171 E.01791
G1 X171.112 Y201.551 E.01793
G1 X171.354 Y201.991 E.01812
G1 X171.507 Y202.478 E.01844
G1 X171.561 Y202.998 E.01889
G1 X171.513 Y203.493 E.018
G1 X171.371 Y203.968 E.01791
G1 X171.14 Y204.407 E.01791
G1 X170.829 Y204.793 E.01791
G1 X170.449 Y205.112 E.01793
G1 X170.009 Y205.354 E.01812
G1 X169.522 Y205.507 E.01844
G1 X169.002 Y205.561 E.01889
G1 X168.507 Y205.513 E.018
G1 X168.032 Y205.371 E.01791
G1 X167.593 Y205.14 E.01791
G1 X167.207 Y204.829 E.01791
G1 X166.888 Y204.449 E.01793
G1 X166.646 Y204.009 E.01812
G1 X166.493 Y203.522 E.01844
G1 X166.439 Y203.002 E.01889
G1 X166.487 Y202.507 E.018
G1 X166.629 Y202.032 E.01791
G1 X166.86 Y201.593 E.01791
G1 X167.171 Y201.207 E.01791
G1 X167.551 Y200.888 E.01793
G1 X167.991 Y200.646 E.01812
G1 X168.478 Y200.493 E.01844
G1 X168.573 Y200.483 E.00348
G1 X168.646 Y200.475 E.00262
G1 X168.732 Y200.926 F30000
;TYPE:Outer wall
G1 F3000
G1 X168.999 Y200.904 E.00966
G3 X167.054 Y202.205 I-.005 J2.096 E.38609
G3 X168.62 Y200.937 I1.935 J.789 E.07596
G1 X168.693 Y200.93 E.00262
G1 E-.728 F1800
;WIPE_START
G1 F30000
G1 X168.999 Y200.904 E-.01845
G1 X169.405 Y200.938 E-.02444
G1 X169.795 Y201.054 E-.02441
G1 X169.864 Y201.091 E-.0047
;WIPE_END
G1 X169.81 Y193.459 Z.6
M73 P0 R89
G1 X168.687 Y33.971 Z.6
G1 Z.2
G1 E.8 F1800
;TYPE:Inner wall
G1 F3000
G1 X168.998 Y33.939 E.0113
G1 X169.493 Y33.987 E.018
G1 X169.968 Y34.129 E.01791
G1 X170.407 Y34.36 E.01791
G1 X170.793 Y34.671 E.01791
G1 X171.112 Y35.051 E.01793
G1 X171.354 Y35.491 E.01812
G1 X171.507 Y35.978 E.01844
G1 X171.561 Y36.498 E.01889
G1 X171.513 Y36.993 E.018
G1 X171.371 Y37.468 E.01791
G1 X171.14 Y37.907 E.01791
G1 X170.829 Y38.293 E.01791
G1 X170.449 Y38.612 E.01793
G1 X170.009 Y38.854 E.01812
G1 X169.522 Y39.007 E.01844
G1 X169.002 Y39.061 E.01889
G1 X168.507 Y39.013 E.018
G1 X168.032 Y38.871 E.01791
G1 X167.593 Y38.64 E.01791
G1 X167.207 Y38.329 E.01791
G1 X166.888 Y37.949 E.01793
G1 X166.646 Y37.509 E.01812
G1 X166.493 Y37.022 E.01844
G1 X166.439 Y36.502 E.01889
G1 X166.487 Y36.007 E.018
G1 X166.629 Y35.532 E.01791
G1 X166.86 Y35.093 E.01791
G1 X167.171 Y34.707 E.01791
G1 X167.551 Y34.388 E.01793
G1 X167.991 Y34.146 E.01812
G1 X168.478 Y33.993 E.01844
G1 X168.573 Y33.983 E.00348
G1 X168.647 Y33.975 E.00266
G1 X168.734 Y34.426 F30000
;TYPE:Outer wall
G1 F3000
G1 X168.999 Y34.404 E.00962
G3 X167.054 Y35.705 I-.005 J2.096 E.38609
G3 X168.62 Y34.437 I1.935 J.789 E.07596
G1 X168.694 Y34.43 E.00266
G1 E-.728 F1800
;WIPE_START
G1 F30000
G1 X168.999 Y34.404 E-.01838
G1 X169.405 Y34.438 E-.02444
G1 X169.795 Y34.554 E-.02441
G1 X169.865 Y34.591 E-.00477
;WIPE_END
G1 X170.462 Y42.201 Z.6
G1 X185.793 Y237.693 Z.6
G1 Z.2
G1 E.8 F1800
;TYPE:Inner wall
G1 F3000
G1 X176.968 Y237.693 E.31883
G3 X170.451 Y234.994 I.048 J-9.331 E.26134
G1 X159.007 Y223.549 E.58475
G3 X156.307 Y217.032 I6.637 J-6.567 E.26133
G1 X156.307 Y198.465 E.67079
G3 X159.007 Y191.948 I9.335 J.05 E.26135
G1 X167.149 Y183.806 E.41599
G2 X170.307 Y176.181 I-7.649 J-7.635 E.30596
G1 X170.307 Y78.155 E3.54158
G2 X167.149 Y70.53 I-10.808 J.01 E.30593
G1 X145.99 Y49.37 E1.08113
G3 X143.307 Y42.871 I6.652 J-6.549 E.26046
G1 X143.307 Y21.518 E.77144
G3 X145.518 Y19.307 I2.224 J.013 E.12526
G1 X185.793 Y19.307 E1.4551
G1 X185.793 Y237.653 E7.88858
G1 X186.25 Y238.15 F30000
;TYPE:Outer wall
G1 F3000
G1 X176.963 Y238.15 E.33554
G3 X170.132 Y235.321 I.055 J-9.794 E.27391
G1 X158.679 Y223.868 E.58515
G3 X155.85 Y217.037 I6.969 J-6.888 E.2739
G1 X155.85 Y198.46 E.67118
G3 X158.68 Y191.629 I9.798 J.057 E.27391
G1 X166.822 Y183.487 E.416
G2 X169.85 Y176.176 I-7.326 J-7.317 E.29338
G1 X169.85 Y78.16 E3.54118
G2 X166.822 Y70.849 I-10.357 J.007 E.29336
G1 X145.662 Y49.689 E1.08112
G3 X142.85 Y42.876 I6.985 J-6.87 E.27302
G1 X142.85 Y21.508 E.77201
G3 X145.508 Y18.85 I2.658 J0 E.15083
G1 X186.25 Y18.85 E1.47197
G1 X186.25 Y238.11 E7.9216
G1 E-.728 F1800
;WIPE_START
G1 F30000
G1 X185.05 Y238.115 E-.072
;WIPE_END
G1 X185.036 Y230.483 Z.6
G1 X184.64 Y19.536 Z.6
G1 Z.2
G1 E.8 F1800
;TYPE:Bottom surface
;WIDTH:0.500406
G1 F6300
G1 X185.359 Y20.255 E.03678
G1 X185.359 Y20.902 E.0234
G1 X184.198 Y19.741 E.05934
G1 X183.551 Y19.741 E.0234
G1 X185.359 Y21.549 E.09243
G1 X185.359 Y22.196 E.0234
G1 X182.904 Y19.741 E.12552
G1 X182.257 Y19.741 E.0234
G1 X185.359 Y22.843 E.1586
G1 X185.359 Y23.49 E.0234
G1 X181.61 Y19.741 E.19169
G1 X180.963 Y19.741 E.0234
G1 X185.359 Y24.137 E.22478
G1 X185.359 Y24.784 E.0234
G1 X180.316 Y19.741 E.25786
G1 X179.669 Y19.741 E.0234
G1 X185.359 Y25.431 E.29095
G1 X185.359 Y26.078 E.0234
G1 X179.022 Y19.741 E.32403
G1 X178.375 Y19.741 E.0234
G1 X185.359 Y26.725 E.35712
G1 X185.359 Y27.372 E.0234
G1 X177.728 Y19.741 E.39021
G1 X177.081 Y19.741 E.0234
G1 X185.359 Y28.019 E.42329
G1 X185.359 Y28.666 E.0234
G1 X176.434 Y19.741 E.45638
G1 X175.787 Y19.741 E.0234
G1 X185.359 Y29.313 E.48947
G1 X185.359 Y29.96 E.0234
G1 X175.14 Y19.741 E.52255
G1 X174.494 Y19.741 E.0234
G1 X185.359 Y30.606 E.55564
G1 X185.359 Y31.253 E.0234
G1 X173.847 Y19.741 E.58872
G1 X173.2 Y19.741 E.0234
G1 X185.359 Y31.9 E.62181
G1 X185.359 Y32.547 E.0234
G1 X172.553 Y19.741 E.6549
G1 X171.906 Y19.741 E.0234
G1 X185.359 Y33.194 E.68798
G1 X185.359 Y33.841 E.0234
G1 X171.259 Y19.741 E.72107
G1 X170.612 Y19.741 E.0234
G1 X185.359 Y34.488 E.75416
G1 X185.359 Y35.135 E.0234
G1 X169.965 Y19.741 E.78724
G1 X169.318 Y19.741 E.0234
G1 X185.359 Y35.782 E.82033
G1 X185.359 Y36.429 E.0234
G1 X168.671 Y19.741 E.85341
G1 X168.024 Y19.741 E.0234
G1 X185.359 Y37.076 E.8865
G1 X185.359 Y37.723 E.0234
G1 X167.377 Y19.741 E.91959
G1 X166.73 Y19.741 E.0234
G1 X185.359 Y38.37 E.95267
G1 X185.359 Y39.017 E.0234
G1 X166.083 Y19.741 E.98576
G1 X165.436 Y19.741 E.0234
G1 X185.359 Y39.664 E1.01885
G1 X185.359 Y40.311 E.0234
G1 X164.789 Y19.741 E1.05193
G1 X164.142 Y19.741 E.0234
G1 X185.359 Y40.958 E1.08502
G1 X185.359 Y41.605 E.0234
G1 X163.495 Y19.741 E1.1181
G1 X162.848 Y19.741 E.0234
G1 X185.359 Y42.252 E1.15119
G1 X185.359 Y42.899 E.0234
G1 X162.201 Y19.741 E1.18428
G1 X161.554 Y19.741 E.0234
G1 X185.359 Y43.546 E1.21736
G1 X185.359 Y44.193 E.0234
G1 X160.907 Y19.741 E1.25045
G1 X160.26 Y19.741 E.0234
G1 X185.359 Y44.84 E1.28354
G1 X185.359 Y45.487 E.0234
G1 X159.613 Y19.741 E1.31662
G1 X158.966 Y19.741 E.0234
G1 X185.359 Y46.134 E1.34971
G1 X185.359 Y46.781 E.0234
G1 X158.319 Y19.741 E1.38279
G1 X157.672 Y19.741 E.0234
G1 X185.359 Y47.428 E1.41588
G1 X185.359 Y48.075 E.0234
G1 X157.025 Y19.741 E1.44897
G1 X156.378 Y19.741 E.0234
G1 X185.359 Y48.722 E1.48205
M73 P1 R89
G1 X185.359 Y49.369 E.0234
G1 X171.941 Y35.951 E.68616
G1 X171.998 Y36.496 E.0198
G1 X171.983 Y36.641 E.00525
G1 X185.359 Y50.016 E.684
G1 X185.359 Y50.663 E.0234
G1 X171.902 Y37.207 E.68815
G1 X171.743 Y37.694 E.01854
G1 X185.359 Y51.31 E.69631
G1 X185.359 Y51.957 E.0234
G1 X171.52 Y38.118 E.70773
G1 X171.235 Y38.48 E.01666
G1 X185.359 Y52.604 E.72227
G1 X185.359 Y53.251 E.0234
G1 X170.904 Y38.796 E.7392
G3 X170.526 Y39.065 I-.87 J-.824 E.01689
G1 X185.359 Y53.898 E.75854
G1 X185.359 Y54.545 E.0234
G1 X170.096 Y39.282 E.78054
G1 X169.603 Y39.436 E.01868
G1 X185.359 Y55.192 E.80576
G1 X185.359 Y55.839 E.0234
G1 X168.79 Y39.27 E.84731
G1 E-.728 F1800
;WIPE_START
G1 F30000
G1 X169.638 Y40.119 E-.072
;WIPE_END
G1 X169.843 Y33.853 Z.6
G1 Z.2
G1 E.8 F1800
G1 F6300
G1 X155.731 Y19.741 E.72167
G1 X155.084 Y19.741 E.0234
G1 X168.859 Y33.517 E.70446
G1 X168.529 Y33.551 E.01202
G2 X168.292 Y33.596 I-.009 J.6 E.00879
G1 X154.437 Y19.741 E.70852
G1 X153.79 Y19.741 E.0234
G1 X167.803 Y33.754 E.7166
G1 X167.386 Y33.984 E.01722
G1 X153.143 Y19.741 E.72835
G1 X152.496 Y19.741 E.0234
G1 X167.021 Y34.266 E.7428
G2 X166.704 Y34.596 I.68 J.974 E.01665
G1 X151.849 Y19.741 E.75964
G1 X151.202 Y19.741 E.0234
G1 X166.433 Y34.972 E.7789
G1 X166.215 Y35.401 E.0174
G1 X150.555 Y19.741 E.80084
G1 X149.908 Y19.741 E.0234
G1 X166.066 Y35.899 E.8263
G1 X166.004 Y36.484 E.02128
G1 X149.261 Y19.741 E.85623
G1 X148.614 Y19.741 E.0234
G1 X166.103 Y37.23 E.89435
G1 X166.245 Y37.681 E.0171
G1 X166.528 Y38.195 E.02123
G1 X166.902 Y38.64 E.02101
G1 X167.353 Y39.004 E.02098
G1 X167.867 Y39.275 E.02098
G1 X168.267 Y39.395 E.01513
G1 X185.359 Y56.486 E.87403
G1 X185.359 Y57.133 E.0234
G1 X147.967 Y19.741 E1.91217
G1 X147.32 Y19.741 E.0234
G1 X185.359 Y57.78 E1.94526
G1 X185.359 Y58.427 E.0234
G1 X146.673 Y19.741 E1.97835
G1 X146.026 Y19.741 E.0234
G1 X185.359 Y59.074 E2.01143
G1 X185.359 Y59.721 E.0234
G1 X145.392 Y19.754 E2.04385
G2 X144.858 Y19.867 I.023 J1.44 E.01988
G1 X185.359 Y60.368 E2.07119
M73 P1 R88
G1 X185.359 Y61.015 E.0234
G1 X144.448 Y20.104 E2.09214
G2 X144.116 Y20.419 I.939 J1.321 E.0166
G1 X185.359 Y61.662 E2.10911
G1 X185.359 Y62.309 E.0234
G1 X143.88 Y20.83 E2.12117
G1 X143.867 Y20.857 E.00107
G2 X143.758 Y21.355 I1.241 J.532 E.01855
G1 X185.359 Y62.956 E2.12745
G1 X185.359 Y63.603 E.0234
G1 X143.742 Y21.985 E2.12827
G1 X143.742 Y22.633 E.02341
G1 X185.359 Y64.25 E2.12826
G1 X185.359 Y64.897 E.0234
G1 X143.742 Y23.28 E2.12824
G1 X143.742 Y23.927 E.02341
G1 X185.359 Y65.544 E2.12822
G1 X185.359 Y66.191 E.0234
G1 X143.743 Y24.575 E2.12821
G1 X143.743 Y25.222 E.02341
G1 X185.359 Y66.838 E2.12819
G1 X185.359 Y67.485 E.0234
G1 X143.743 Y25.869 E2.12817
G1 X143.744 Y26.517 E.02341
G1 X185.359 Y68.131 E2.12816
G1 X185.359 Y68.778 E.0234
G1 X143.744 Y27.164 E2.12814
G1 X143.744 Y27.811 E.02341
G1 X185.359 Y69.425 E2.12812
G1 X185.359 Y70.072 E.0234
G1 X143.745 Y28.458 E2.12811
G1 X143.745 Y29.106 E.02341
G1 X185.359 Y70.719 E2.12809
G1 X185.359 Y71.366 E.0234
G1 X143.745 Y29.753 E2.12808
G1 X143.746 Y30.4 E.02341
G1 X185.359 Y72.013 E2.12806
G1 X185.359 Y72.66 E.0234
G1 X143.746 Y31.048 E2.12804
G1 X143.746 Y31.695 E.02341
G1 X185.359 Y73.307 E2.12803
G1 X185.359 Y73.954 E.0234
G1 X143.747 Y32.342 E2.12801
G1 X143.747 Y32.99 E.02341
G1 X185.359 Y74.601 E2.12799
G1 X185.359 Y75.248 E.0234
G1 X143.747 Y33.637 E2.12798
G1 X143.748 Y34.284 E.02341
G1 X185.359 Y75.895 E2.12796
G1 X185.359 Y76.542 E.0234
G1 X143.748 Y34.932 E2.12794
G1 X143.748 Y35.579 E.02341
G1 X185.359 Y77.189 E2.12793
G1 X185.359 Y77.836 E.0234
G1 X143.749 Y36.226 E2.12791
G1 X143.749 Y36.873 E.02341
G1 X185.359 Y78.483 E2.12789
G1 X185.359 Y79.13 E.0234
G1 X143.749 Y37.521 E2.12788
G1 X143.75 Y38.168 E.02341
G1 X185.359 Y79.777 E2.12786
G1 X185.359 Y80.424 E.0234
G1 X143.75 Y38.815 E2.12785
G1 X143.75 Y39.463 E.02341
G1 X185.359 Y81.071 E2.12783
G1 X185.359 Y81.718 E.0234
G1 X143.751 Y40.11 E2.12781
G1 X143.751 Y40.757 E.02341
G1 X185.359 Y82.365 E2.1278
G1 X185.359 Y83.012 E.0234
G1 X143.751 Y41.405 E2.12778
G1 X143.751 Y42.052 E.02341
G1 X185.359 Y83.659 E2.12776
G1 X185.359 Y84.306 E.0234
G1 X143.752 Y42.699 E2.12775
G1 X143.757 Y43.351 E.02359
G1 X185.359 Y84.953 E2.12748
G1 X185.359 Y85.6 E.0234
G1 X143.827 Y44.068 E2.12393
G1 X143.975 Y44.864 E.02927
G1 X185.359 Y86.247 E2.11632
G1 X185.359 Y86.894 E.0234
G1 X144.236 Y45.771 E2.103
G2 X144.727 Y46.909 I12.952 J-4.913 E.04483
G1 X185.359 Y87.541 E2.0779
G1 X185.359 Y88.188 E.0234
G1 X168.108 Y70.937 E.8822
G3 X169.439 Y72.916 I-8.313 J7.032 E.08642
G1 X185.359 Y88.835 E.81411
G1 X185.359 Y89.482 E.0234
G1 X169.978 Y74.101 E.78656
G3 X170.306 Y75.076 I-10.772 J4.169 E.03722
G1 X185.359 Y90.129 E.76978
G1 X185.359 Y90.776 E.0234
G1 X170.517 Y75.934 E.759
G3 X170.644 Y76.708 I-13.723 J2.647 E.02836
G1 X185.359 Y91.423 E.75251
G1 X185.359 Y92.07 E.0234
G1 X170.714 Y77.426 E.7489
G3 X170.74 Y78.098 I-7.049 J.605 E.02435
G1 X185.359 Y92.717 E.74759
G1 X185.359 Y93.364 E.0234
G1 X170.741 Y78.746 E.74752
G1 X170.741 Y79.393 E.0234
G1 X185.359 Y94.011 E.74752
G1 X185.359 Y94.658 E.0234
G1 X170.741 Y80.04 E.74752
G1 X170.741 Y80.687 E.0234
G1 X185.359 Y95.305 E.74752
G1 X185.359 Y95.952 E.0234
G1 X170.741 Y81.334 E.74752
G1 X170.741 Y81.981 E.0234
G1 X185.359 Y96.599 E.74752
M73 P2 R88
G1 X185.359 Y97.246 E.0234
G1 X170.741 Y82.628 E.74752
G1 X170.741 Y83.275 E.0234
G1 X185.359 Y97.893 E.74752
G1 X185.359 Y98.54 E.0234
G1 X170.741 Y83.922 E.74752
G1 X170.741 Y84.569 E.0234
G1 X185.359 Y99.187 E.74752
G1 X185.359 Y99.834 E.0234
G1 X170.741 Y85.216 E.74752
G1 X170.741 Y85.863 E.0234
G1 X185.359 Y100.481 E.74752
G1 X185.359 Y101.128 E.0234
G1 X170.741 Y86.51 E.74752
G1 X170.741 Y87.157 E.0234
G1 X185.359 Y101.775 E.74752
G1 X185.359 Y102.422 E.0234
G1 X170.741 Y87.804 E.74752
G1 X170.741 Y88.451 E.0234
G1 X185.359 Y103.069 E.74752
G1 X185.359 Y103.716 E.0234
G1 X170.741 Y89.098 E.74752
G1 X170.741 Y89.745 E.0234
G1 X185.359 Y104.363 E.74752
G1 X185.359 Y105.01 E.0234
G1 X170.741 Y90.392 E.74752
G1 X170.741 Y91.039 E.0234
G1 X185.359 Y105.657 E.74752
G1 X185.359 Y106.303 E.0234
G1 X170.741 Y91.686 E.74752
G1 X170.741 Y92.333 E.0234
G1 X185.359 Y106.95 E.74752
G1 X185.359 Y107.597 E.0234
G1 X170.741 Y92.98 E.74752
G1 X170.741 Y93.627 E.0234
G1 X185.359 Y108.244 E.74752
G1 X185.359 Y108.891 E.0234
G1 X170.741 Y94.274 E.74752
G1 X170.741 Y94.921 E.0234
G1 X185.359 Y109.538 E.74752
G1 X185.359 Y110.185 E.0234
G1 X170.741 Y95.568 E.74752
G1 X170.741 Y96.215 E.0234
G1 X185.359 Y110.832 E.74752
G1 X185.359 Y111.479 E.0234
G1 X170.741 Y96.862 E.74752
G1 X170.741 Y97.509 E.0234
G1 X185.359 Y112.126 E.74752
G1 X185.359 Y112.773 E.0234
G1 X170.741 Y98.156 E.74752
G1 X170.741 Y98.803 E.0234
G1 X185.359 Y113.42 E.74752
G1 X185.359 Y114.067 E.0234
G1 X170.741 Y99.45 E.74752
G1 X170.741 Y100.097 E.0234
G1 X185.359 Y114.714 E.74752
G1 X185.359 Y115.361 E.0234
G1 X170.741 Y100.744 E.74752
G1 X170.741 Y101.391 E.0234
G1 X185.359 Y116.008 E.74752
G1 X185.359 Y116.655 E.0234
G1 X170.741 Y102.038 E.74752
G1 X170.741 Y102.685 E.0234
G1 X185.359 Y117.302 E.74752
G1 X185.359 Y117.949 E.0234
G1 X170.741 Y103.332 E.74752
