; HEADER_BLOCK_START
; generated by ElegooSlicer 1.1.1.0 on 2024-10-15 at 09:56:46
; total layer number: 292
; filament_density: 1.25
; filament_diameter: 1.75
; max_z_height: 45.00
; HEADER_BLOCK_END

; THUMBNAIL_BLOCK_START

;
; THUMBNAIL_BLOCK_END

; external perimeters extrusion width = 0.42mm
; perimeters extrusion width = 0.45mm
; infill extrusion width = 0.45mm
; solid infill extrusion width = 0.42mm
; top infill extrusion width = 0.42mm
; first layer extrusion width = 0.50mm

; external perimeters extrusion width = 0.42mm
; perimeters extrusion width = 0.45mm
; infill extrusion width = 0.45mm
; solid infill extrusion width = 0.42mm
; top infill extrusion width = 0.42mm
; first layer extrusion width = 0.50mm

; external perimeters extrusion width = 0.42mm
; perimeters extrusion width = 0.45mm
; infill extrusion width = 0.45mm
; solid infill extrusion width = 0.42mm
; top infill extrusion width = 0.42mm
; first layer extrusion width = 0.50mm

; EXECUTABLE_BLOCK_START
EXCLUDE_OBJECT_DEFINE NAME=铲刀.stl_1_id_0_copy_0 CENTER=96.318,128 POLYGON=[[71.318,61],[71.3195,60.934],[71.3234,60.8733],[71.324,60.8669],[71.3316,60.7991],[71.3401,60.7434],[71.3424,60.7306],[71.3448,60.7181],[71.3567,60.6616],[71.3691,60.612],[71.3744,60.5925],[71.3957,60.5235],[71.4109,60.4805],[71.4206,60.4548],[71.4256,60.4423],[71.4491,60.3867],[71.4658,60.3509],[71.4813,60.3195],[71.5338,60.225],[71.5562,60.1889],[71.5624,60.1795],[71.6144,60.1049],[71.645,60.0652],[71.707,59.9923],[71.7464,59.9504],[71.7574,59.9393],[71.8103,59.8889],[71.859,59.8466],[71.9229,59.7964],[71.9684,59.7638],[71.9811,59.7552],[72.0431,59.7157],[72.0458,59.7141],[72.112,59.6765],[72.1689,59.6477],[72.1796,59.6427],[72.2206,59.6241],[72.2482,59.6125],[72.2986,59.5928],[72.3186,59.5856],[72.3895,59.5625],[72.43,59.5511],[72.4605,59.5432],[72.5088,59.5322],[72.5315,59.5276],[72.5615,59.5221],[72.6044,59.5153],[72.662,59.5081],[72.6766,59.5067],[72.6913,59.5054],[72.818,59.5],[119.818,59.5],[119.945,59.5054],[119.96,59.5067],[119.974,59.5081],[120.032,59.5153],[120.075,59.5221],[120.105,59.5276],[120.127,59.5322],[120.176,59.5432],[120.206,59.5511],[120.247,59.5625],[120.317,59.5856],[120.338,59.5928],[120.388,59.6125],[120.415,59.6241],[120.456,59.6427],[120.467,59.6477],[120.524,59.6765],[120.59,59.7141],[120.593,59.7157],[120.655,59.7552],[120.668,59.7638],[120.713,59.7964],[120.777,59.8466],[120.826,59.8889],[120.879,59.9393],[120.89,59.9504],[120.929,59.9923],[120.991,60.0652],[121.022,60.1049],[121.074,60.1795],[121.08,60.1889],[121.102,60.225],[121.155,60.3195],[121.17,60.3509],[121.187,60.3867],[121.21,60.4423],[121.215,60.4548],[121.225,60.4805],[121.24,60.5235],[121.262,60.5925],[121.267,60.612],[121.279,60.6616],[121.291,60.7181],[121.294,60.7306],[121.296,60.7434],[121.305,60.7991],[121.312,60.8669],[121.313,60.8733],[121.317,60.934],[121.318,61],[121.318,75.3477],[107.318,194.5],[105.318,196.5],[87.318,196.5],[86.9208,196.105],[86.5174,195.702],[85.318,194.5],[71.318,75.3477],[71.318,61]]
EXCLUDE_OBJECT_DEFINE NAME=铲刀.stl_2_id_1_copy_0 CENTER=153.982,180.8 POLYGON=[[123.282,169.608],[123.282,169.583],[123.283,169.553],[123.287,169.497],[123.293,169.441],[123.302,169.385],[123.314,169.33],[123.328,169.274],[123.345,169.22],[123.364,169.166],[123.386,169.113],[123.41,169.061],[123.437,169.011],[123.465,168.962],[123.496,168.915],[123.529,168.869],[123.564,168.825],[123.6,168.783],[123.638,168.744],[126.926,165.456],[126.965,165.418],[127.007,165.382],[127.051,165.347],[127.096,165.314],[127.143,165.283],[127.192,165.254],[127.242,165.228],[127.293,165.204],[127.346,165.182],[127.399,165.163],[127.453,165.146],[127.507,165.132],[127.562,165.12],[127.617,165.111],[127.672,165.105],[127.727,165.101],[127.782,165.1],[180.182,165.1],[180.237,165.101],[180.292,165.105],[180.347,165.111],[180.402,165.12],[180.457,165.132],[180.511,165.146],[180.565,165.163],[180.618,165.182],[180.671,165.204],[180.722,165.228],[180.772,165.254],[180.821,165.283],[180.868,165.314],[180.913,165.347],[180.957,165.382],[180.998,165.418],[181.038,165.456],[184.326,168.744],[184.364,168.783],[184.4,168.825],[184.435,168.869],[184.468,168.915],[184.499,168.962],[184.527,169.011],[184.554,169.061],[184.578,169.113],[184.6,169.166],[184.619,169.22],[184.636,169.274],[184.65,169.33],[184.662,169.385],[184.671,169.441],[184.677,169.497],[184.681,169.553],[184.682,169.583],[184.682,169.608],[184.682,192],[184.682,192.023],[184.681,192.054],[184.677,192.109],[184.671,192.164],[184.662,192.219],[184.65,192.274],[184.636,192.329],[184.62,192.382],[184.601,192.436],[184.579,192.488],[184.555,192.539],[184.529,192.589],[184.5,192.637],[184.469,192.684],[184.437,192.729],[184.402,192.773],[184.366,192.814],[184.328,192.854],[181.036,196.146],[180.996,196.184],[180.955,196.22],[180.911,196.255],[180.866,196.287],[180.819,196.318],[180.771,196.347],[180.721,196.373],[180.67,196.397],[180.618,196.419],[180.565,196.438],[180.511,196.454],[180.456,196.468],[180.401,196.48],[180.346,196.489],[180.291,196.495],[180.237,196.499],[180.182,196.5],[127.782,196.5],[127.727,196.499],[127.673,196.495],[127.617,196.489],[127.562,196.48],[127.508,196.468],[127.453,196.454],[127.399,196.438],[127.346,196.419],[127.294,196.397],[127.243,196.373],[127.193,196.347],[127.145,196.318],[127.098,196.287],[127.053,196.255],[127.009,196.22],[126.968,196.184],[126.928,196.146],[123.636,192.854],[123.598,192.814],[123.562,192.773],[123.527,192.729],[123.495,192.684],[123.464,192.637],[123.435,192.589],[123.409,192.539],[123.385,192.488],[123.363,192.436],[123.344,192.382],[123.328,192.329],[123.314,192.274],[123.302,192.219],[123.293,192.164],[123.287,192.109],[123.283,192.054],[123.282,192.023],[123.282,192],[123.282,169.608]]
EXCLUDE_OBJECT_DEFINE NAME=铲刀.stl_3_id_2_copy_0 CENTER=153.982,136.374 POLYGON=[[136.235,136.648],[136.236,136.618],[136.238,136.588],[136.242,136.558],[136.247,136.529],[136.254,136.499],[136.262,136.47],[136.272,136.441],[136.283,136.412],[136.296,136.385],[136.31,136.357],[136.326,136.331],[136.342,136.306],[136.36,136.281],[136.38,136.258],[136.4,136.235],[136.421,136.214],[136.444,136.194],[138.089,134.773],[143.025,130.511],[143.175,130.387],[143.33,130.269],[143.492,130.158],[143.659,130.052],[143.831,129.954],[144.008,129.862],[144.19,129.778],[144.376,129.702],[144.565,129.633],[144.758,129.572],[144.953,129.519],[145.151,129.475],[145.35,129.438],[145.551,129.41],[145.752,129.39],[145.954,129.378],[146.156,129.374],[161.808,129.374],[162.01,129.378],[162.211,129.39],[162.413,129.41],[162.614,129.438],[162.813,129.475],[163.011,129.519],[163.206,129.572],[163.399,129.633],[163.588,129.702],[163.774,129.778],[163.956,129.862],[164.133,129.954],[164.305,130.052],[164.472,130.158],[164.634,130.269],[164.789,130.387],[164.939,130.511],[166.584,131.931],[169.875,134.773],[171.52,136.194],[171.543,136.214],[171.564,136.235],[171.584,136.258],[171.603,136.281],[171.622,136.306],[171.638,136.331],[171.654,136.357],[171.668,136.385],[171.681,136.412],[171.692,136.441],[171.702,136.47],[171.71,136.499],[171.717,136.529],[171.722,136.558],[171.726,136.588],[171.728,136.618],[171.729,136.648],[171.729,143.024],[171.727,143.056],[171.724,143.087],[171.717,143.119],[171.707,143.15],[171.694,143.18],[171.679,143.209],[171.66,143.237],[171.639,143.263],[171.615,143.286],[171.589,143.307],[171.56,143.325],[171.531,143.34],[171.5,143.353],[171.468,143.362],[171.435,143.369],[171.403,143.373],[171.371,143.374],[136.593,143.374],[136.561,143.373],[136.528,143.369],[136.496,143.362],[136.464,143.353],[136.433,143.34],[136.403,143.325],[136.375,143.307],[136.349,143.286],[136.325,143.263],[136.304,143.237],[136.285,143.209],[136.27,143.18],[136.257,143.15],[136.247,143.119],[136.24,143.087],[136.236,143.056],[136.235,143.024],[136.235,136.648]]
M106 S0
M106 P2 S0
;TYPE:Custom
;;===== date: 20240520 =====================
;printer_model:Elegoo Centauri Carbon
;initial_filament:PLA
;curr_bed_type:High Temp Plate
M400 ; wait for buffer to clear
M220 S100 ;Set the feed speed to 100%
M221 S100 ;Set the flow rate to 100%
M104 S140
M140 S60
G90
G28 ;home


;=============turn on fans to prevent PLA jamming=================

    
    M106 P3 S255
    ;Prevent PLA from jamming


;enable_pressure_advance:false
;This value is called if pressure advance is enabled

M204 S5000 ;Call exterior wall print acceleration


G1 X128 Y-1.2 F20000
G1 Z0.3 F900
M109 S210
M83
G92 E0 ;Reset Extruder
G1 F6000 
G1 X-1.2 E10.156 ;Draw the first line
G1 Y98.8 E7.934
G1 X-0.5 Y100 E0.1
G1 Y-0.3 E7.934
G1 X78 E6.284
G1 F1680 
G1 X98 E2
G1 F8400 
G1 X118 E2
G1 F1680 
G1 X138 E2
G1 F8400 
G1 X158 E2
G1 F8400 
G1 X178 E2
;End PA test.


G3 I-1 J0 Z0.6 F1200.0 ;Move to side a little
G1 F20000
G92 E0 ;Reset Extruder
;LAYER_COUNT:292
;LAYER:0
G90
G21
M83 ; use relative distances for extrusion
; filament start gcode
M106 P3 S200


;LAYER_CHANGE
;Z:0.2
;HEIGHT:0.2
;BEFORE_LAYER_CHANGE
;0.2
G92 E0

G1 E-.8 F1800
;LAYER:1

;_SET_FAN_SPEED_CHANGING_LAYER
SET_VELOCITY_LIMIT ACCEL=500
EXCLUDE_OBJECT_START NAME=铲刀.stl_1_id_0_copy_0
G1 X109.031 Y64.923 F30000
G1 Z.4
G1 Z.2
G1 E.8 F1800
;TYPE:Inner wall
;WIDTH:0.5
G1 F3000
G1 X109.318 Y64.949 E.0104
G3 X109.797 Y65.099 I-.495 J2.43 E.01817
G1 X110.237 Y65.345 E.0182
G3 X109.802 Y69.832 I-1.52 J2.117 E.19679
G1 X109.32 Y69.986 E.01825
G1 X108.818 Y70.038 E.01824
G1 X108.319 Y69.986 E.01814
G1 X107.839 Y69.834 E.01818
G1 X107.4 Y69.589 E.01817
G1 X107.02 Y69.261 E.01812
G1 X106.714 Y68.869 E.018
G3 X107.834 Y65.101 I2.201 J-1.396 E.1609
G1 X108.314 Y64.947 E.01821
G1 X108.755 Y64.9 E.01601
G1 X108.991 Y64.92 E.00856
G1 X108.993 Y65.376 F30000
;TYPE:Outer wall
G1 F3000
G1 X109.223 Y65.405 E.00835
G3 X110.87 Y67.466 I-.442 J2.042 E.10318
G3 X108.818 Y69.578 I-2.099 J.013 E.11789
G3 X106.821 Y66.995 I.05 J-2.102 E.13507
G3 X108.78 Y65.357 I2.039 J.448 E.09926
G1 X108.953 Y65.373 E.00628
G1 E-.728 F1800
;WIPE_START
G1 F30000
G1 X109.223 Y65.405 E-.01627
G1 X109.615 Y65.52 E-.02452
G1 X109.973 Y65.721 E-.02466
G1 X110.056 Y65.792 E-.00655
;WIPE_END
G1 X102.428 Y65.538 Z.6
G1 X83.651 Y64.912 Z.6
G1 Z.2
G1 E.8 F1800
;TYPE:Inner wall
G1 F3000
G1 X83.755 Y64.9 E.00379
G3 X84.797 Y65.099 I.068 J2.479 E.03862
G1 X85.237 Y65.345 E.0182
G3 X84.802 Y69.832 I-1.52 J2.117 E.19679
G1 X84.32 Y69.986 E.01825
G1 X83.818 Y70.038 E.01824
G1 X83.319 Y69.986 E.01814
G1 X82.839 Y69.834 E.01818
G1 X82.4 Y69.589 E.01817
G1 X82.02 Y69.261 E.01812
G1 X81.714 Y68.869 E.018
G3 X82.834 Y65.101 I2.201 J-1.396 E.1609
G1 X83.314 Y64.947 E.01821
G1 X83.611 Y64.916 E.01078
G1 X83.699 Y65.366 F30000
;TYPE:Outer wall
G1 F3000
G1 X83.78 Y65.357 E.00293
G3 X85.87 Y67.466 I0 J2.089 E.11928
G3 X83.818 Y69.578 I-2.099 J.013 E.11789
G3 X81.821 Y66.995 I.05 J-2.102 E.13507
G3 X83.411 Y65.405 I2.039 J.448 E.08579
G1 X83.66 Y65.371 E.00908
G1 E-.728 F1800
;WIPE_START
G1 F30000
G1 X83.78 Y65.357 E-.00727
G1 X84.224 Y65.397 E-.02676
G1 X84.615 Y65.52 E-.02457
G1 X84.81 Y65.63 E-.01341
;WIPE_END
G1 X78.171 Y69.395 Z.6
G1 X72.125 Y72.824 Z.6
G1 Z.2
G1 E.8 F1800
;TYPE:Inner wall
G1 F3000
G1 X72.125 Y63.638 E.3319
G1 X120.511 Y63.638 E1.74812
G1 X120.511 Y72.824 E.3319
G2 X114.272 Y74.777 I6.259 J30.947 E.23661
G2 X109.55 Y77.719 I7.679 J17.582 E.20173
G2 X104.905 Y86.033 I9.131 J10.555 E.3511
G2 X104.65 Y89.232 I18.907 J3.12 E.1161
G3 X104.646 Y93.914 I-389.084 J2.044 E.16916
G1 X104.646 Y189.823 E3.46508
G3 X104.654 Y193.79 I-441.775 J2.803 E.14332
G1 X87.982 Y193.79 E.60231
G3 X87.989 Y189.823 I416.837 J-1.319 E.14332
G1 X87.989 Y93.914 E3.46508
G2 X87.977 Y88.431 I-759.471 J-1.088 E.19812
G2 X86.496 Y82.139 I-15.75 J.387 E.23518
G2 X81.828 Y76.73 I-12.924 J6.433 E.26085
G2 X76.196 Y73.928 I-12.748 J18.562 E.22801
G2 X72.164 Y72.833 I-12.468 J37.94 E.15102
G1 X71.668 Y73.197 F30000
;TYPE:Outer wall
G1 F3000
G1 X71.668 Y63.181 E.36189
G1 X120.968 Y63.181 E1.78115
G1 X120.968 Y73.197 E.36189
G2 X114.458 Y75.194 I5.891 J30.816 E.2465
G2 X109.85 Y78.064 I7.489 J17.158 E.19682
G2 X105.356 Y86.111 I8.828 J10.21 E.33983
G2 X105.107 Y89.235 I18.432 J3.041 E.11339
G3 X105.103 Y93.915 I-389.513 J2.041 E.16909
G1 X105.103 Y189.822 E3.465
G3 X105.108 Y194.247 I-393.838 J2.653 E.15987
G1 X87.528 Y194.247 E.63516
G3 X87.532 Y189.822 I379.251 J-1.887 E.15987
G1 X87.532 Y93.916 E3.465
G2 X87.52 Y88.445 I-760.964 J-1.084 E.19764
G2 X86.085 Y82.339 I-15.286 J.371 E.22825
G2 X81.563 Y77.102 I-12.513 J6.234 E.25258
G2 X76.048 Y74.36 I-12.484 J18.192 E.22325
G2 X71.707 Y73.205 I-12.127 J36.85 E.16238
G1 E-.728 F1800
;WIPE_START
G1 F30000
G1 X71.703 Y72.005 E-.072
;WIPE_END
G1 X79.226 Y70.72 Z.6
G1 X119.357 Y63.866 Z.6
G1 Z.2
G1 E.8 F1800
;TYPE:Bottom surface
;WIDTH:0.500724
G1 F6300
G1 X120.077 Y64.586 E.03684
G1 X120.077 Y65.233 E.02343
G1 X118.915 Y64.072 E.05944
G1 X118.268 Y64.072 E.02343
G1 X120.077 Y65.881 E.09258
G1 X120.077 Y66.528 E.02343
G1 X117.62 Y64.072 E.12571
G1 X116.973 Y64.072 E.02343
G1 X120.077 Y67.176 E.15884
G1 X120.077 Y67.823 E.02343
G1 X116.325 Y64.072 E.19197
G1 X115.678 Y64.072 E.02343
G1 X120.077 Y68.471 E.2251
G1 X120.077 Y69.118 E.02343
G1 X115.031 Y64.072 E.25824
G1 X114.383 Y64.072 E.02343
G1 X120.077 Y69.765 E.29137
G1 X120.077 Y70.413 E.02343
G1 X113.736 Y64.072 E.3245
G1 X113.088 Y64.072 E.02343
G1 X120.077 Y71.06 E.35763
G1 X120.077 Y71.708 E.02343
G1 X112.441 Y64.072 E.39077
G1 X111.793 Y64.072 E.02343
G1 X120.077 Y72.355 E.4239
G1 X120.077 Y72.48 E.00451
G1 X119.653 Y72.579 E.01575
G1 X111.146 Y64.072 E.43534
G1 X110.499 Y64.072 E.02343
G1 X119.128 Y72.702 E.44162
G2 X118.604 Y72.825 I.983 J5.354 E.01949
G1 X109.851 Y64.072 E.44793
G1 X109.204 Y64.072 E.02343
G1 X109.765 Y64.633 E.02871
G1 X109.971 Y64.698 E.00783
G1 X110.487 Y64.987 E.02141
G1 X110.915 Y65.356 E.02043
G1 X111.283 Y65.822 E.02148
G1 X111.544 Y66.33 E.02069
G1 X111.578 Y66.447 E.00439
G1 X118.101 Y72.969 E.33378
G1 X117.598 Y73.113 E.01894
G1 X111.746 Y67.261 E.29948
G1 X111.765 Y67.466 E.00744
G1 X111.726 Y67.889 E.01537
G1 X117.094 Y73.257 E.27474
G2 X116.611 Y73.421 I1.355 J4.803 E.01849
G1 X111.603 Y68.414 E.25626
G3 X111.41 Y68.868 I-1.282 J-.276 E.01797
G1 X116.128 Y73.586 E.24146
G1 X115.646 Y73.752 E.01844
G1 X111.162 Y69.267 E.22949
G1 X110.938 Y69.556 E.01324
G1 X110.866 Y69.619 E.00344
G1 X115.183 Y73.935 E.22092
G1 X114.723 Y74.123 E.01797
G1 X110.519 Y69.919 E.21515
G1 X110.11 Y70.157 E.01713
G1 X114.263 Y74.311 E.21257
G2 X113.815 Y74.51 I1.828 J4.712 E.01775
G1 X109.643 Y70.339 E.21349
G3 X109.102 Y70.445 I-.525 J-1.244 E.0201
G1 X113.374 Y74.716 E.21859
G2 X112.945 Y74.935 I2.83 J6.085 E.01742
G1 X108.198 Y70.188 E.24293
G1 E-.728 F1800
;WIPE_START
G1 F30000
G1 X109.046 Y71.036 E-.072
;WIPE_END
G1 X109.191 Y64.707 Z.6
G1 Z.2
G1 E.8 F1800
G1 F6300
G1 X108.556 Y64.072 E.03251
G1 X107.909 Y64.072 E.02343
G1 X108.345 Y64.508 E.0223
G1 X108.224 Y64.52 E.00437
G1 X107.834 Y64.645 E.01482
G1 X107.261 Y64.072 E.02932
G1 X106.614 Y64.072 E.02343
G1 X107.393 Y64.851 E.03986
G2 X107.005 Y65.111 I.445 J1.081 E.017
G1 X105.966 Y64.072 E.05317
G1 X105.319 Y64.072 E.02343
G1 X106.669 Y65.421 E.06906
G1 X106.385 Y65.786 E.0167
G1 X104.672 Y64.072 E.08771
G1 X104.024 Y64.072 E.02343
G1 X106.159 Y66.206 E.10923
G2 X105.989 Y66.684 I1.15 J.678 E.01845
G1 X103.377 Y64.072 E.13367
G1 X102.729 Y64.072 E.02343
G1 X105.893 Y67.235 E.16189
G1 X105.871 Y67.467 E.00844
G1 X105.912 Y67.902 E.01579
G1 X102.082 Y64.072 E.196
G1 X101.434 Y64.072 E.02343
G1 X112.52 Y75.158 E.56731
G1 X112.105 Y75.39 E.01721
G1 X100.787 Y64.072 E.57921
G1 X100.14 Y64.072 E.02343
G1 X111.698 Y75.631 E.59152
G1 X111.298 Y75.877 E.01703
G1 X99.492 Y64.072 E.60415
G1 X98.845 Y64.072 E.02343
G1 X110.909 Y76.136 E.6174
G2 X110.525 Y76.399 I2.632 J4.265 E.01686
G1 X98.197 Y64.072 E.63085
G1 X97.55 Y64.072 E.02343
G1 X110.154 Y76.676 E.64502
G2 X109.789 Y76.958 I2.679 J3.85 E.01671
G1 X96.902 Y64.072 E.65945
G1 X96.255 Y64.072 E.02343
G1 X109.434 Y77.251 E.67445
G2 X109.089 Y77.553 I2.736 J3.48 E.01661
G1 X95.608 Y64.072 E.6899
G1 X94.96 Y64.072 E.02343
G1 X108.751 Y77.863 E.70577
