; HEADER_BLOCK_START
; generated by ElegooSlicer 1.1.5.4 on 2024-12-31 at 09:36:37
; total layer number: 192
; filament_density: 1.25
; filament_diameter: 1.75
; max_z_height: 48.00
; HEADER_BLOCK_END

; THUMBNAIL_BLOCK_START

;
; THUMBNAIL_BLOCK_END

; external perimeters extrusion width = 0.50mm
; perimeters extrusion width = 0.50mm
; infill extrusion width = 0.50mm
; solid infill extrusion width = 0.50mm
; top infill extrusion width = 0.50mm
; first layer extrusion width = 0.50mm

; EXECUTABLE_BLOCK_START
EXCLUDE_OBJECT_DEFINE NAME=3DBenchy_id_0_copy_0 CENTER=128,128 POLYGON=[[97.9995,118.816],[98.0025,118.755],[98.0065,118.699],[98.0115,118.646],[98.0135,118.63],[98.0195,118.583],[98.0285,118.525],[98.0455,118.436],[98.0585,118.379],[98.0735,118.322],[98.0805,118.296],[98.0975,118.239],[98.1265,118.155],[98.1405,118.118],[98.1625,118.064],[98.1695,118.047],[98.1855,118.01],[98.2095,117.958],[98.2305,117.916],[98.2635,117.854],[98.2785,117.827],[98.2905,117.806],[98.3395,117.727],[98.3575,117.7],[98.3715,117.679],[98.4055,117.631],[98.4405,117.584],[98.4835,117.531],[98.5085,117.501],[98.5385,117.466],[98.5785,117.423],[98.5925,117.408],[98.6005,117.4],[98.6415,117.359],[98.6615,117.34],[98.7045,117.3],[98.7375,117.271],[98.7825,117.234],[98.7935,117.225],[98.8285,117.197],[98.8865,117.154],[98.9345,117.121],[98.9785,117.092],[99.0445,117.052],[99.0715,117.036],[99.1235,117.008],[99.1485,116.995],[99.1755,116.981],[99.1975,116.97],[99.2535,116.944],[99.3115,116.919],[99.3615,116.899],[99.4165,116.879],[99.4285,116.875],[99.4715,116.861],[99.4845,116.857],[99.5405,116.84],[99.5475,116.838],[99.5845,116.828],[99.5965,116.825],[99.6245,116.818],[99.6405,116.814],[99.7105,116.799],[99.7395,116.794],[99.7685,116.789],[99.7975,116.784],[127.813,112.886],[128.055,112.853],[128.299,112.821],[128.543,112.791],[128.882,112.752],[129.105,112.728],[129.35,112.702],[129.596,112.678],[129.842,112.656],[130.087,112.635],[130.253,112.622],[130.333,112.616],[130.523,112.602],[130.579,112.598],[130.826,112.581],[130.987,112.571],[131.071,112.566],[131.232,112.557],[131.489,112.544],[131.597,112.539],[131.619,112.538],[131.755,112.532],[131.906,112.526],[132.05,112.521],[132.167,112.517],[132.233,112.515],[132.342,112.512],[132.46,112.509],[132.548,112.507],[132.689,112.504],[132.881,112.501],[133.063,112.499],[133.18,112.498],[133.578,112.498],[133.934,112.5],[134.369,112.508],[134.45,112.51],[134.805,112.52],[134.912,112.524],[135.24,112.537],[135.677,112.558],[136.009,112.578],[136.092,112.583],[136.202,112.59],[136.375,112.602],[136.495,112.611],[136.641,112.622],[136.728,112.629],[136.909,112.644],[137.04,112.655],[137.832,112.78],[137.841,112.782],[138.269,112.888],[138.377,112.915],[138.595,112.97],[138.737,113.007],[138.813,113.027],[138.967,113.068],[139.248,113.145],[139.424,113.195],[139.68,113.27],[139.896,113.334],[140.111,113.4],[140.332,113.47],[140.558,113.543],[140.752,113.607],[141.008,113.694],[141.178,113.753],[141.232,113.772],[141.4,113.832],[141.601,113.905],[141.822,113.987],[142.033,114.067],[142.233,114.145],[142.344,114.188],[142.443,114.228],[142.453,114.232],[142.662,114.316],[142.871,114.402],[142.927,114.425],[143.134,114.513],[143.341,114.603],[143.547,114.693],[143.957,114.879],[144.16,114.974],[144.363,115.07],[144.565,115.168],[144.766,115.267],[144.967,115.367],[145.166,115.469],[145.366,115.572],[145.563,115.677],[145.762,115.783],[145.957,115.89],[146.153,115.999],[146.348,116.11],[146.543,116.221],[146.737,116.334],[146.93,116.449],[147.123,116.565],[147.314,116.683],[147.505,116.801],[147.696,116.922],[147.885,117.043],[148.075,117.167],[148.262,117.291],[148.451,117.417],[148.637,117.544],[148.824,117.673],[149.008,117.803],[149.193,117.934],[149.376,118.067],[149.56,118.201],[149.743,118.337],[149.923,118.474],[150.104,118.612],[150.284,118.752],[150.463,118.893],[150.642,119.036],[150.82,119.18],[150.998,119.325],[151.173,119.472],[151.523,119.77],[151.697,119.921],[151.87,120.074],[152.042,120.228],[152.214,120.384],[152.328,120.489],[152.498,120.645],[152.665,120.803],[152.832,120.962],[152.996,121.122],[153.161,121.283],[153.325,121.445],[153.486,121.609],[153.647,121.773],[153.807,121.939],[153.966,122.106],[154.124,122.274],[154.282,122.443],[154.438,122.614],[154.592,122.785],[154.745,122.958],[154.898,123.132],[155.05,123.306],[155.201,123.483],[155.349,123.66],[155.499,123.838],[155.645,124.017],[155.791,124.198],[155.936,124.38],[156.081,124.563],[156.223,124.747],[156.364,124.932],[156.505,125.118],[156.645,125.305],[156.784,125.493],[156.921,125.683],[157.056,125.874],[157.192,126.065],[157.326,126.258],[157.458,126.452],[157.589,126.647],[157.618,126.692],[157.651,126.745],[157.682,126.798],[157.713,126.852],[157.742,126.907],[157.769,126.962],[157.819,127.076],[157.834,127.117],[157.856,127.175],[157.876,127.233],[157.895,127.292],[157.912,127.351],[157.929,127.413],[157.943,127.47],[157.954,127.53],[157.966,127.593],[157.975,127.652],[157.984,127.713],[157.991,127.774],[157.995,127.836],[157.999,127.905],[158,127.966],[158,128.027],[157.999,128.088],[157.996,128.149],[157.992,128.209],[157.986,128.27],[157.977,128.331],[157.968,128.391],[157.958,128.449],[157.945,128.512],[157.932,128.569],[157.916,128.632],[157.901,128.686],[157.883,128.745],[157.863,128.803],[157.842,128.861],[157.82,128.918],[157.797,128.974],[157.771,129.03],[157.744,129.086],[157.716,129.14],[157.686,129.194],[157.655,129.248],[157.624,129.301],[157.589,129.353],[157.472,129.527],[157.339,129.721],[157.206,129.914],[157.071,130.106],[156.936,130.297],[156.797,130.487],[156.659,130.676],[156.52,130.864],[156.38,131.05],[156.237,131.236],[156.095,131.42],[155.951,131.604],[155.659,131.968],[155.51,132.148],[155.361,132.328],[155.21,132.506],[155.06,132.683],[154.907,132.86],[154.752,133.035],[154.597,133.209],[154.482,133.337],[154.326,133.509],[154.167,133.68],[154.008,133.85],[153.848,134.018],[153.688,134.186],[153.526,134.352],[153.2,134.68],[153.034,134.841],[152.869,135.002],[152.703,135.161],[152.535,135.319],[152.368,135.475],[152.199,135.63],[152.028,135.784],[151.857,135.937],[151.686,136.089],[151.512,136.239],[151.338,136.388],[151.164,136.536],[150.987,136.682],[150.811,136.827],[150.632,136.971],[150.454,137.114],[150.275,137.256],[150.093,137.396],[149.911,137.535],[149.728,137.673],[149.544,137.81],[149.359,137.945],[149.173,138.08],[148.799,138.344],[148.611,138.474],[148.421,138.603],[148.23,138.731],[148.039,138.857],[147.846,138.982],[147.653,139.106],[147.458,139.228],[147.263,139.349],[147.067,139.469],[146.869,139.587],[146.672,139.704],[146.472,139.819],[146.272,139.934],[146.072,140.046],[145.87,140.158],[145.595,140.307],[145.395,140.412],[145.196,140.516],[144.996,140.618],[144.796,140.719],[144.595,140.818],[144.392,140.916],[144.19,141.012],[143.987,141.107],[143.783,141.2],[143.579,141.292],[143.374,141.383],[143.169,141.472],[142.963,141.559],[142.756,141.645],[142.666,141.682],[142.549,141.73],[142.341,141.813],[142.122,141.898],[142.003,141.944],[141.704,142.057],[141.493,142.134],[141.293,142.206],[141.071,142.284],[140.884,142.348],[140.869,142.353],[140.656,142.424],[140.443,142.494],[140.207,142.57],[140.005,142.632],[139.979,142.64],[139.751,142.709],[139.523,142.776],[139.295,142.841],[139.142,142.884],[139.065,142.905],[138.924,142.943],[138.707,143.001],[138.606,143.027],[138.488,143.057],[138.269,143.112],[137.844,143.218],[137.316,143.319],[137.306,143.32],[137.05,143.344],[137.003,143.348],[136.81,143.364],[136.725,143.371],[136.561,143.384],[136.481,143.39],[136.134,143.414],[135.688,143.441],[135.649,143.443],[135.264,143.462],[135.126,143.468],[134.778,143.481],[134.564,143.487],[134.344,143.493],[133.907,143.5],[133.522,143.502],[133.177,143.502],[132.877,143.499],[132.821,143.498],[132.599,143.494],[132.457,143.491],[132.338,143.488],[132.166,143.483],[132.076,143.48],[131.93,143.475],[131.752,143.468],[131.728,143.467],[131.57,143.46],[131.463,143.455],[131.332,143.448],[131.133,143.437],[130.889,143.423],[130.644,143.407],[130.629,143.406],[130.342,143.385],[130.096,143.366],[129.849,143.345],[129.667,143.328],[129.603,143.322],[129.423,143.305],[129.179,143.28],[129.111,143.273],[128.935,143.254],[128.619,143.218],[128.373,143.188],[128.204,143.166],[127.882,143.124],[99.8275,139.22],[99.7925,139.215],[99.7425,139.207],[99.6855,139.196],[99.6535,139.189],[99.5965,139.175],[99.5845,139.172],[99.5475,139.162],[99.5365,139.159],[99.4805,139.142],[99.4285,139.125],[99.4165,139.121],[99.3615,139.101],[99.3115,139.081],[99.2535,139.056],[99.1975,139.03],[99.1555,139.009],[99.1045,138.982],[99.0865,138.972],[99.0445,138.948],[98.9925,138.917],[98.9785,138.908],[98.9435,138.885],[98.9345,138.879],[98.8865,138.846],[98.8475,138.817],[98.8395,138.811],[98.7935,138.775],[98.7555,138.744],[98.7485,138.738],[98.7045,138.7],[98.6615,138.66],[98.6405,138.64],[98.5925,138.592],[98.5575,138.555],[98.5385,138.534],[98.5185,138.511],[98.4805,138.466],[98.4445,138.42],[98.4305,138.402],[98.4095,138.374],[98.4065,138.37],[98.3725,138.322],[98.3575,138.3],[98.3425,138.278],[98.3085,138.224],[98.2785,138.173],[98.2505,138.122],[98.2305,138.084],[98.2185,138.06],[98.1955,138.012],[98.1695,137.954],[98.1485,137.903],[98.1275,137.849],[98.1085,137.793],[98.1075,137.79],[98.0905,137.738],[98.0745,137.682],[98.0595,137.625],[98.0455,137.564],[98.0345,137.507],[98.0255,137.454],[98.0245,137.448],[98.0165,137.396],[98.0115,137.353],[98.0085,137.325],[98.0025,137.245],[98.0005,137.208],[97.9995,137.179],[97.9995,118.816]]
M106 S0
M106 P2 S0
;TYPE:Custom
;;===== date: 20240520 =====================
;printer_model:Elegoo Centauri Carbon
;initial_filament:PLA
;curr_bed_type:Textured PEI Plate
M400 ; wait for buffer to clear
M220 S100 ;Set the feed speed to 100%
M221 S100 ;Set the flow rate to 100%
M104 S140
M140 S60
G90
G28 ;home
M729 ;Clean Nozzle


;=============turn on fans to prevent PLA jamming=================

    
    M106 P3 S255
    ;Prevent PLA from jamming


;enable_pressure_advance:true
;This value is called if pressure advance is enabled

SET_PRESSURE_ADVANCE ADVANCE=0.024 ;
M400

M204 S8000 ;Call exterior wall print acceleration


G1 X128.5 Y-1.2 F20000
G1 Z0.3 F900
M109 S210
M83
G92 E0 ;Reset Extruder
G1 F6000 
G1 X-1.2 E10.156 ;Draw the first line
G1 Y98.8 E7.934
G1 X-0.5 Y100 E0.1
G1 Y-0.3 E7.934
G1 X78.5 E6.284
G1 F2400 
G1 X98.5 E2
G1 F12000 
G1 X118.5 E2
G1 F2400 
G1 X138.5 E2
G1 F12000 
G1 X158.5 E2
G1 F12000 
G1 X178.5 E2
;End PA test.


G3 I-1 J0 Z0.6 F1200.0 ;Move to side a little
G1 F20000
G92 E0 ;Reset Extruder
;LAYER_COUNT:192
;LAYER:0
G90
G21
M83 ; use relative distances for extrusion
; filament start gcode
M106 P3 S200


SET_PRESSURE_ADVANCE ADVANCE=0.024; Override pressure advance value
;LAYER_CHANGE
;Z:0.25
;HEIGHT:0.25
;BEFORE_LAYER_CHANGE
;0.25
G92 E0

;LAYER:1

;_SET_FAN_SPEED_CHANGING_LAYER
SET_VELOCITY_LIMIT ACCEL=12000
SET_VELOCITY_LIMIT SQUARE_CORNER_VELOCITY=12
G1 E-.4 F1800
EXCLUDE_OBJECT_START NAME=3DBenchy_id_0_copy_0
G1 X128.185 Y127.211 F30000
G1 Z.25
G1 E.4 F1800
;TYPE:Outer wall
;WIDTH:0.5
G1 F4800
G2 X128.475 Y126.694 I-1.14 J-.981 E.02634
G3 X129.101 Y126.148 I1.019 J.535 E.03746
G3 X129.808 Y126.446 I.09 J.775 E.03542
G3 X129.947 Y126.797 I-.365 J.347 E.01707
G3 X129.905 Y127.279 I-1.418 J.119 E.02143
G2 X129.163 Y128.572 I94.21 J54.907 E.06575
G1 X129.151 Y128.608 E.00166
G2 X129.25 Y129.005 I.395 J.113 E.0189
G3 X129.937 Y130.164 I-63.655 J38.558 E.05943
G3 X129.77 Y131.266 I-.808 J.441 E.0528
G3 X128.652 Y131.186 I-.517 J-.628 E.05454
G3 X128.368 Y130.595 I1.177 J-.929 E.02918
G2 X128.103 Y130.208 I-1.26 J.581 E.02076
G2 X127.949 Y130.459 I.668 J.583 E.01304
G1 X127.95 Y130.611 E.0067
G3 X127.639 Y131.102 I-19.981 J-12.323 E.02564
G3 X126.448 Y131.056 I-.581 J-.395 E.06272
G3 X126.45 Y130.26 I.752 J-.397 E.03656
G3 X126.559 Y129.936 I3.105 J.873 E.01506
G3 X126.961 Y129.167 I5.603 J2.434 E.03832
G2 X127.243 Y128.767 I-11.843 J-8.666 E.02158
G1 X127.238 Y128.754 E.00061
G3 X126.531 Y127.568 I12.753 J-8.408 E.06093
G3 X126.325 Y126.764 I1.114 J-.714 E.03721
G3 X126.976 Y126.149 I.772 J.165 E.04201
G3 X127.666 Y126.385 I.138 J.725 E.03364
G3 X127.876 Y126.718 I-.347 J.45 E.01774
G2 X128.159 Y127.181 I1.674 J-.707 E.02401
G1 X128.197 Y127.159
G1 E-.28 F1800
;WIPE_START
G1 F30000
G1 X128.34 Y126.992 E-.01573
G1 X128.455 Y126.783 E-.01431
G1 X128.475 Y126.694 E-.00546
G1 X128.613 Y126.472 E-.01564
G1 X128.687 Y126.401 E-.00619
G1 X128.938 Y126.212 E-.01884
G1 X129.101 Y126.148 E-.01049
G1 X129.283 Y126.137 E-.01098
G1 X129.449 Y126.178 E-.01022
G1 X129.592 Y126.253 E-.00971
G1 X129.622 Y126.28 E-.00242
;WIPE_END
G1 X123.822 Y129.554
G1 E.4 F1800
G1 F4800
G3 X124.214 Y129.243 I.988 J.845 E.0222
G3 X124.74 Y129.048 I.505 J.556 E.02533
G3 X125.997 Y130.04 I.122 J1.138 E.07819
G3 X125.988 Y130.639 I-2.245 J.264 E.02653
G3 X125.743 Y131.252 I-2.479 J-.635 E.02918
G3 X123.533 Y130.758 I-.981 J-.802 E.12351
G3 X123.562 Y130.035 I2.76 J-.251 E.03197
G3 X123.797 Y129.585 I1.248 J.364 E.02254
G1 X123.807 Y129.513
G1 E-.28 F1800
;WIPE_START
G1 F30000
G1 X123.976 Y129.397 E-.01557
G1 X124.214 Y129.243 E-.01701
G1 X124.284 Y129.179 E-.0057
G1 X124.415 Y129.109 E-.00889
G1 X124.551 Y129.064 E-.0086
G1 X124.74 Y129.048 E-.01137
G1 X124.886 Y129.037 E-.00877
G1 X125.147 Y129.076 E-.01584
G1 X125.37 Y129.164 E-.01442
G1 X125.566 Y129.285 E-.01382
;WIPE_END
G1 X118.804 Y125.156
G1 E.4 F1800
G1 F4800
G3 X119.407 Y124.719 I.737 J.381 E.03408
G3 X119.726 Y124.684 I.312 J1.389 E.01417
G3 X121.347 Y124.721 I-1.513 J102.029 E.07154
G3 X122.898 Y125.243 I-.082 J2.811 E.07322
G3 X123.909 Y127.128 I-1.911 J2.239 E.09658
G3 X123.87 Y128.715 I-3.92 J.698 E.07046
G2 X123.591 Y129.53 I29.467 J10.563 E.038
G3 X123.055 Y130.364 I-2.481 J-1.005 E.04395
G3 X122.708 Y130.751 I-1.01 J-.555 E.02313
G3 X121.684 Y131.168 I-1.275 J-1.668 E.04934
G3 X120.044 Y131.226 I-1.195 J-10.538 E.07246
G3 X119.266 Y131.22 I-.375 J-1.9 E.03453
G3 X118.788 Y130.559 I.346 J-.754 E.03761
G3 X118.762 Y130.262 I1.815 J-.307 E.01317
G2 X118.773 Y125.858 I-200.68 J-2.67 E.19424
G3 X118.793 Y125.195 I1.49 J-.285 E.02949
G1 X118.784 Y125.129
G1 E-.28 F1800
;WIPE_START
G1 F30000
G1 X118.891 Y125.013 E-.01241
G1 X119.079 Y124.845 E-.01511
G1 X119.225 Y124.774 E-.00974
G1 X119.407 Y124.719 E-.01139
G1 X119.726 Y124.684 E-.01924
G1 X120.594 Y124.695 E-.05212
;WIPE_END
G1 X118.09 Y127.802
G1 E.4 F1800
;TYPE:Inner wall
G1 F4800
G1 X118.008 Y127.672 E.00678
G3 X117.84 Y127.482 I.502 J-.614 E.01121
G3 X118.022 Y127.246 I.411 J.127 E.01345
G1 X118.115 Y127.037 E.01008
G1 X118.327 Y127.082 E.00956
G1 X118.328 Y127.816 E.03235
G1 X118.134 Y127.872 E.00889
G1 X118.111 Y127.836 E.00187
G1 E-.28 F1800
;WIPE_START
G1 F30000
G1 X118.008 Y127.672 E-.01163
G1 X117.945 Y127.621 E-.00486
G1 X117.84 Y127.482 E-.01043
G1 X117.934 Y127.319 E-.01128
G1 X118.022 Y127.246 E-.0069
G1 X118.115 Y127.037 E-.01371
G1 X118.327 Y127.082 E-.013
G1 X118.328 Y127.816 E-.04402
G1 X118.261 Y127.835 E-.00417
;WIPE_END
G1 X117.096 Y127.502
G1 E.4 F1800
;TYPE:Outer wall
G1 F4800
G1 X117.096 Y127.502 E.00002
G3 X117.609 Y127.924 I-.34 J.937 E.02982
G1 X117.67 Y127.973 E.00348
G3 X117.97 Y128.64 I-2.203 J1.39 E.03234
G3 X115.864 Y131.405 I-2.095 J.589 E.17756
G3 X114.295 Y131.03 I-.225 J-2.524 E.07238
G3 X113.968 Y129.713 I.608 J-.85 E.06513
G3 X114.994 Y129.368 I.753 J.543 E.05093
G3 X115.671 Y129.772 I-.615 J1.8 E.03504
G2 X116.104 Y129.696 I.169 J-.308 E.02097
G2 X116.141 Y128.922 I-.383 J-.406 E.0378
G2 X115.523 Y128.528 I-.8 J.573 E.03308
G3 X114.802 Y128.319 I.124 J-1.778 E.03338
G3 X114.615 Y127.365 I.503 J-.594 E.0463
G3 X115.16 Y126.875 I.711 J.242 E.03382
G3 X115.662 Y126.757 I1.273 J4.305 E.02273
G2 X115.966 Y126.293 I-.077 J-.382 E.0272
G2 X115.558 Y126.152 I-.269 J.118 E.02138
G2 X115.135 Y126.394 I.609 J1.561 E.02158
G3 X114.626 Y126.563 I-.817 J-1.601 E.02375
G3 X114.083 Y126.232 I.135 J-.83 E.02875
G3 X113.896 Y125.707 I.596 J-.509 E.02512
G3 X113.968 Y125.29 I1.495 J.045 E.01875
